**kern	**dynam
*I"Viola	*
*clefC3	*
*k[b-]	*
*F:	*
*M4/4	*
*met(c)	*
=1	=1
8AL	p
8A	.
8A	.
8AJ	.
2A	.
=2	=2
2A	.
2A	.
=3	=3
2A	.
2A	.
=4	=4
2A	.
2A	.
=5	=5
2A	.
2A	.
=6	=6
2A	.
!LO:TX:b:i:t=cresc.	!
2A	.
=7	=7
2A	.
2B-	.
=8	=8
2B-	p
2B-	.
=9	=9
2B-	.
2B-	.
=10	=10
!!linebreak:original
2B-	.
2B-	.
=11	=11
2B-	.
2B-	.
=12	=12
2B-	.
2B-	.
=13	=13
2B-	.
!LO:TX:b:i:t=cresc.	!
2B-	.
=14	=14
2B-	.
2B-	.
=15	=15
2B-	.
2B-	.
=16	=16
2B-	.
2B-	.
=17	=17
2B-	.
2B-	.
=18	=18
2c 2e	.
2c 2e	.
=19	=19
2.c	.
[4F	ff
=20	=20
8F']	.
8r	.
8F'	.
8r	.
2F	.
=21	=21
8B-'	.
8r	.
8d'	.
8r	.
(2c	.
=22	=22
!!linebreak:original
8F')	.
8r	.
8B-'	.
8r	.
(2Bn	.
=23	=23
2c	.
2E)	.
=24	=24
8E	.
8r	.
8c#X	.
8r	.
[2d	.
=25	=25
(2d]	.
2Bn)	.
=26	=26
8B-	.
8r	.
8e	.
8r	.
!LO:TX:b:i:t=cresc.	!
[2e-X	.
=27	=27
(2e-]	.
2d)	.
=28	=28
2d-X	sf
2B-	>
=29	=29
1C 1B-	.
=30	=30
[1C [1A	p
=31	=31
1C_ 1A_	.
=32	=32
1C_ 1A]	.
=33	=33
1C] 1B-	.
=34	=34
!!linebreak:original
!LO:TX:a:i:t=dol.	!
(2.c	.
8dL	.
8cJ	.
=35	=35
8B-L	.
8c	.
8A	.
8GJ	.
8AL	.
8G	.
8F	.
8GJ	.
=36	=36
8AL	.
8B-	.
8c	.
8dJ	.
8cL	.
8d	.
8e	.
8fJ	.
=37	=37
8eL	.
8g)	.
8B-'	.
8B-'J	.
(8B-L	.
8c)	.
8G'	.
8G'J	.
=38	=38
(4A	.
4B-	.
4c	.
4d)	sf
=39	=39
1Bn	p
=40	=40
(4c	.
4d	.
4e	.
4f)	sf
=41	=41
1d	p
=42	=42
!!linebreak:original
!LO:TX:b:i:t=cresc.	!
(4e	.
4f	.
4g	.
4a)	.
=43	=43
(4f	.
4g	.
4a	.
4bn)	.
=44	=44
(4cc	p
4f	.
4g	.
4a	.
=45	=45
4f	.
!LO:TX:b:i:t=cresc.	!
4g	.
4a	.
4bn	.
=46	=46
4cc	.
4dd	.
4ee	.
4bn	.
=47	=47
2cc)	.
4c	f
4cc	.
=48	=48
4G 4d 4bn	.
4r	ff
2r	.
=49	=49
1r	.
=50	=50
1r	.
=51	=51
1r	.
=52	=52
1r	.
=53	=53
1e-X	sf
=54	=54
1d	p
=55	=55
!!linebreak:original
1d-X	]
=56	=56
1c	p
=57	=57
1c 1f	sf
=58	=58
2.c 2.e	p
(4c	<
=59	=59
2.Bn)	>
4d	.
=60	=60
!	!LO:DY:a
(4c	p
4A	p
4G	.
4F)	.
=61	=61
(4.E	.
8D	.
[2C)	.
=62	=62
2C]	.
2D	.
=63	=63
(4E	<
4c	.
4Bn	[
4dd	>
=64	=64
2.cc	]
4bn)	.
=65	=65
[2cc	.
(8ccL]	.
8bn	.
8a	.
8gJ)	.
=66	=66
!!linebreak:original
(4f	.
4g	.
4f	.
[4dd)	.
=67	=67
(4cc	sf
4dd	p
4ee	.
4dd)	.
=68	=68
(4cc	sf
4dd	p
4ee	.
4f)	.
=69	=69
(4e	sf
4f	p
4g	.
4f)	.
=70	=70
(4e	sf
4f	p
4g	.
4f)	.
=71	=71
!LO:TX:b:i:t=cresc.	!
(2e	.
2f	.
=72	=72
2g	.
2a	.
=73	=73
4bn)	.
4r	.
2r	.
=74	=74
4cc	.
4r	.
2r	.
=75	=75
4Bn 4d	.
4r	.
2r	.
=76	=76
!!linebreak:original
4c 4e	.
4r	.
4r	.
(12cL	.
12Bn	.
12AJ	.
=77	=77
12GL	.
12A	.
12F#XJ)	.
2D	.
(12cL	.
12Bn	.
12AJ	.
=78	=78
12GL	.
12A	.
12F#XJ)	.
2D	.
(12cL	.
12Bn	.
12AJ	.
=79	=79
12GL	.
12A	.
12F#XJ)	.
12D'L	.
12F#'	.
12A'J	.
12cL	.
12d	.
12f#XJ	.
4r	.
=80	=80
1r	.
=81	=81
1r	.
=82	=82
1r	.
=83	=83
(12GL	.
12F	.
12EJ	.
12DL	.
12E	.
12CJ)	.
12E'L	.
12G'	.
12c'J	.
12e'L	.
12g'	.
12cc'J	.
=84	=84
!!linebreak:original
12c'L	.
12e'	.
12g'J	.
12eL	.
12c	.
12GJ	.
12EL	.
12e	.
12gJ	.
12ccL	.
12cc	.
12ccJ	.
=85	=85
2r	.
2c#X	.
=86	=86
1r	.
=87	=87
2r	.
2d-X	.
=88	=88
1r	.
=89	=89
2c#X	.
2g	.
=90	=90
2f	.
2d 2bn	.
=91	=91
(2.Bn	p
!LO:TX:b:i:t=dol.	!
4c	.
=92	=92
2.d	.
4Bn)	.
=93	=93
(4c	.
4d	.
4e	.
4f)	.
=94	=94
!!linebreak:original
(2.d	.
4Bn)	.
=95	=95
(8cL	.
8d)	.
8c	.
8dJ	.
(8eL	.
8f)	.
8e	.
8fJ	.
=96	=96
!LO:TX:b:i:t=cresc.	!
1d	.
=97	=97
[1C [1c	.
=98	=98
1C_ 1c_	p
=99	=99
1C_ 1c_	.
=100	=100
1C_ 1c_	.
=101	=101
1C_ 1c_	.
=102	=102
2C_ 2c_	.
8CL] 8c]	.
8G	.
8A	.
8AJ	.
=103	=103
8AL	.
!	!LO:DY:a
8A	p
8A	.
8AJ	.
2A	.
=104	=104
2A	.
2A	.
=105	=105
!!linebreak:original
8AL	.
8A	.
8A	.
8AJ	.
2A	.
=106	=106
2A	.
2A	.
=107	=107
2A	.
!LO:TX:b:i:t=cresc.	!
2A	.
=108	=108
1r	.
=109	=109
(8BnL	f
8c)	.
8B'	.
8c'J	.
(8dL	.
8e-X)	.
8d'	.
8e-'J	.
=110	=110
[1e-X	sf
=111	=111
1e-]	>
=112	=112
4d	p
4r	.
2r	.
=113	=113
1r	.
=114	=114
1r	.
=115	=115
!!linebreak:original
(4b-	.
4cc	.
4dd	.
4ee-X)	.
=116	=116
(2.cc	.
8ddL	.
8ccJ)	.
=117	=117
(8b-L	.
8cc)	.
8a'	.
8g'J	.
(4f#X	.
4ee-X	.
=118	=118
[1dd)	.
=119	=119
12ddL]	.
12cc	.
12aJ	.
12cL	.
12A	.
12dJ	.
12cL	.
12A	.
12dJ	.
12B-L	.
12G	.
12dJ	.
=120	=120
8G	.
8B-L 8d	.
8B- 8d	.
8B-J 8d	.
8B-L 8d	.
8B- 8d	.
8B- 8d	.
8B-J 8d	.
=121	=121
8B-L 8d	.
8B- 8d	.
8B- 8d	.
8B-J 8d	.
8B-L 8d	.
8B- 8d	.
8B- 8d	.
8B-J 8d	.
=122	=122
2r	.
(4g	.
4a	.
=123	=123
4b-	.
4cc	.
4b-)	.
8a'L	.
8g'J	.
=124	=124
!!linebreak:original
8fL	.
8g	.
8e	.
8dJ	.
4c#X	.
4r	.
=125	=125
4r	.
8g'L	.
8a'J	.
4b-	.
8G'L	.
8A'J	.
=126	=126
4B-	.
4r	.
2r	.
=127	=127
1r	.
=128	=128
2r	.
4r	.
8e'L	.
8f'J	.
=129	=129
8g	.
8r	.
4r	.
4r	.
8g'L 8a	.
8g'J 8a	.
=130	=130
4f 4a	.
4r	.
2r	.
=131	=131
1r	.
=132	=132
2r	.
4r	.
8F'L	.
8A'J	.
=133	=133
4A	.
4r	.
4r	.
8f#X'L	.
8g'J	.
=134	=134
!!linebreak:original
4a	.
4r	.
2r	.
=135	=135
1r	.
=136	=136
2r	.
4r	.
8A'L	.
8B-'J	.
=137	=137
4c	.
4r	.
4r	.
8f#X'L 8a	.
8f#'J 8a	.
=138	=138
4g 4b-	.
4r	.
4r	.
8B-'L	.
8A'J	.
=139	=139
4G	.
4r	.
4r	.
8ee-XL	.
8ddJ	.
=140	=140
(8ee-XL	.
8gg)	.
8b-'	.
8a-X'J	.
(8gL	.
8b-)	.
8e-X'	.
8d'J	.
=141	=141
!!linebreak:original
(8e-XL	.
8g)	.
8B-'	.
8A-X'J	.
(8GL	.
8B-)	.
8E-X'	.
8D'J	.
=142	=142
(8E-XL	.
8G)	.
8B-'	.
8A-X'J	.
8G'L	.
8B-'	.
8e-X'	.
8g'J	.
=143	=143
8b-L	.
8G	.
8B-	.
8e-XJ	.
8gL	.
8b-	.
8ee-X	.
8ee-J	.
=144	=144
2r	.
2c#X' 2e	.
=145	=145
1r	.
=146	=146
2r	.
2c#X 2e	.
=147	=147
1r	.
=148	=148
2r	.
2Bn 2d	.
=149	=149
1r	.
=150	=150
2F'	.
2cc'	.
=151	=151
2dd-X'	.
2B-'	.
=152	=152
!!linebreak:original
[1C [1G	.
=153	=153
1C_ 1G_	.
=154	=154
1C_ 1G_	.
=155	=155
1C_ 1G_	.
=156	=156
1C_ 1G_	.
=157	=157
1C] 1G]	.
=158	=158
[1C	.
=159	=159
1C]	.
=160	=160
[1D-X	.
=161	=161
1D-_	.
=162	=162
1D-_	.
=163	=163
(2D-]	.
2E-X)	.
=164	=164
[1E-X	.
=165	=165
(2E-]	.
[2F)	.
=166	=166
(2F]	.
[2G-X)	.
=167	=167
(2G-]	.
[2A-X)	.
=168	=168
1A-_	.
=169	=169
1A-_	.
=170	=170
!!linebreak:original
(4A-]	.
4B-	.
4c	.
4d-X)	.
=171	=171
[1A-X	.
=172	=172
(4A-]	.
4B-	.
4c	.
4d-X)	.
=173	=173
(4A-X	.
4B-	.
4dn	.
4e-X)	.
=174	=174
2.d-X	.
(8cL	.
8d-J	.
=175	=175
4e-X	.
8cL	.
8d-XJ	.
8e-L	.
8f	.
8g-X	.
8a-XJ)	.
=176	=176
2.a-X	.
[4d-X	.
=177	=177
(4d	.
4e-X	.
4f	.
4g-X)	.
=178	=178
(4e	.
4f	.
4g-X	.
4a-X)	.
=179	=179
1g-Xt	.
=180	=180
!!linebreak:original
(4f	.
4g-X	.
4a-X	.
8b-L	.
8a-J)	.
=181	=181
(2.e-X	.
4c)	.
=182	=182
(8d-XL	.
8e-X)	.
8d-	.
8e-J	.
(8fL	.
8g-X)	.
8f	.
8g-J	.
=183	=183
(2.e-X	.
4g-X)	.
=184	=184
4f'	.
4r	.
2r	.
=185	=185
1r	.
=186	=186
1r	.
=187	=187
1r	.
=188	=188
1r	.
=189	=189
1r	.
=190	=190
2r	.
[2b-	.
=191	=191
2b-]	.
2a	.
=192	=192
4b-	.
4f	.
[2dd-X	.
=193	=193
2dd-]	.
[2cc-X	.
=194	=194
(8cc-L]	.
8b-)	.
8a-X'	.
8g-X'J	.
(4f	.
4b-)	.
=195	=195
!!linebreak:original
(8e-XL	.
8f)	.
8e-'	.
8f'J	.
(8g-XL	.
8a-X)	.
8g-'	.
8a-'J	.
=196	=196
8fL	.
8g-X	.
8f'	.
8g-'J	.
(8a-XL	.
8b-)	.
8a-'	.
8b-'J	.
=197	=197
(8g-XL	.
8a-X)	.
8g-'	.
8a-'J	.
(8b-L	.
8cc-X)	.
8b-'	.
8cc-'J	.
=198	=198
(8anL	.
8b-)	.
8ccn'	.
8a'J	.
8b-'L	.
8f'	.
8d-X'	.
8B-'J	.
=199	=199
(8G-XL	.
8A-X)	.
8G-'	.
8F'J	.
8E-X'L	.
8D-X'	.
8C'	.
8c'J	.
=200	=200
4F	.
4r	.
2r	.
=201	=201
1r	.
=202	=202
!!linebreak:original
2r	.
[2b-	.
=203	=203
2b-]	.
2a-X	.
=204	=204
2r	.
[2G	.
=205	=205
2G]	.
2F	.
=206	=206
4G-X'	.
4D-X'	.
[2B-	.
=207	=207
2B-]	.
2A	.
=208	=208
4Bn	.
4F	.
[2d	.
=209	=209
2d]	.
2c	.
=210	=210
[1Bn [1a-X	.
=211	=211
1B_ 1a-_	.
=212	=212
2B] 2a-]	.
[2Bn [2d	.
=213	=213
1B_ 1d_	.
=214	=214
4B] 4d]	.
2Bn	.
[4A-X	.
=215	=215
4A-]	.
4r	.
2r	.
=216	=216
!!linebreak:original
4r	.
2Bn	.
[4A-X	.
=217	=217
4A-]	.
2G	.
4G	.
=218	=218
1r	.
=219	=219
(4D	.
4E	.
4F	.
4G	.
=220	=220
2.E	.
8FL	.
8EJ)	.
=221	=221
(8DL	.
8E)	.
8D	.
8EJ	.
(8FL	.
8G)	.
8F	.
8GJ	.
=222	=222
4E	.
4r	.
2r	.
=223	=223
4g-X	.
4r	.
2r	.
=224	=224
(4B-	.
4c	.
4d	.
4e-X	.
=225	=225
2.d	.
4B-)	.
=226	=226
!!linebreak:original
(4F#X	.
4G	.
4A	.
4B-	.
=227	=227
2.A	.
4Fn)	.
=228	=228
4r	.
(12eL	.
12d	.
12c#XJ	.
12BnL	.
12c#	.
12AJ)	.
[4a	.
=229	=229
4a]	.
4r	.
2r	.
=230	=230
(4G#X	.
4A	.
4Bn	.
4c)	.
=231	=231
(2.Bn	.
4Gn)	.
=232	=232
4r	.
(12GL	.
12F	.
12EJ	.
12DL	.
12E	.
12CJ)	.
[4c	.
=233	=233
4c]	.
4r	.
2r	.
=234	=234
!!linebreak:original
(12GL	.
12F	.
12EJ	.
12DL	.
12E	.
12CJ)	.
12cL	.
12c	.
12cJ	.
12cL	.
12c	.
12cJ	.
=235	=235
4c	.
4r	.
2r	.
=236	=236
4r	.
2e	.
[4f	.
=237	=237
4f]	.
2g	.
[4a	.
=238	=238
4a]	.
(4B-	.
4c	.
4d	.
=239	=239
4e)	.
4f	.
4g	.
4e)	.
=240	=240
4e	.
4r	.
2r	.
=241	=241
1r	.
=242	=242
2.a	.
[4f	.
=243	=243
8f]	.
8r	.
8f	.
8r	.
2f	.
=244	=244
!!linebreak:original
8dd	.
8r	.
8b-	.
8r	.
2a	.
=245	=245
2r	.
(2f	.
=246	=246
2e	.
2g)	.
=247	=247
8f#X	.
8r	.
8g	.
8r	.
2a-X	.
=248	=248
8b-	.
8r	.
8b-	.
8r	.
[2cc	.
=249	=249
8cc]	.
8r	.
8cc	.
8r	.
8dd	.
8r	.
8dd	.
8r	.
=250	=250
[1bn	.
=251	=251
1b]	.
=252	=252
[1a	.
=253	=253
4a]	.
8g'L	.
8f'J	.
(8eL	.
8d)	.
8c'	.
8B-'J	.
=254	=254
!!linebreak:original
2A	.
2A	.
=255	=255
4A	.
4r	.
2r	.
=256	=256
1r	.
=257	=257
1r	.
=258	=258
1r	.
=259	=259
1r	.
=260	=260
1r	.
=261	=261
8r	.
8B-L	.
8B-	.
8B-J	.
2B-	.
=262	=262
2B-	.
2B-	.
=263	=263
2B-	.
2B-	.
=264	=264
2B-	.
2B-	.
=265	=265
2B-	.
2B-	.
=266	=266
2B-	.
2B-	.
=267	=267
2B-	.
2B-	.
=268	=268
2B-	.
2B-	.
=269	=269
!!linebreak:original
2A	.
2A	.
=270	=270
2A	.
2A	.
=271	=271
2A	.
2A	.
=272	=272
2A	.
2A	.
=273	=273
2A-X	.
2A-	.
=274	=274
2A-X	.
2A-	.
=275	=275
2A-X	.
2A-	.
=276	=276
2A-X	.
4A-	.
8f'L	.
8e-X'J	.
=277	=277
(8d-XL	.
8c)	.
8B-'	.
8A-X'J	.
4G-X	.
4r	.
=278	=278
2r	.
4r	.
(4c	.
=279	=279
4d-X)	.
4r	.
2r	.
=280	=280
1r	.
=281	=281
1r	.
=282	=282
1r	.
=283	=283
!!linebreak:original
(2.A-X	.
8B-L	.
8A-J	.
=284	=284
8G-XL	.
8A-X	.
8F	.
8E-XJ	.
8FL	.
8E-	.
8D-X	.
8E-J	.
=285	=285
8FL	.
8G-X	.
8A-X	.
8B-J	.
8A-L	.
8B-	.
8c	.
8d-XJ)	.
=286	=286
(8cL	.
8e-X)	.
8G-X'	.
8G-'J	.
(8G-L	.
8A-X)	.
8E-X'	.
8E-'J	.
=287	=287
[1F	.
=288	=288
8FL]	.
8c	.
8E-X	.
8E-J	.
8E-L	.
8F	.
8C	.
8CJ	.
=289	=289
[1D-X	.
=290	=290
!!linebreak:original
(8D-L]	.
8C)	.
8C'	.
8C'J	.
(8CL	.
8D-X)	.
8D-'	.
8D-'J	.
=291	=291
[1D-X	.
=292	=292
(8D-L]	.
8C)	.
8C'	.
8C'J	.
(8CL	.
8D-X)	.
8D-'	.
8D-'J	.
=293	=293
(8D-XL	.
8C)	.
8D-'	.
8D-'J	.
(8D-L	.
8C)	.
8D-'	.
8D-'J	.
=294	=294
(8D-XL	.
8C)	.
8C'	.
8C'J	.
8C'L	.
8C'	.
8C'	.
8C'J	.
=295	=295
2C	.
(12DL	.
12E	.
12FJ	.
12GL	.
12A	.
12BnJ)	.
=296	=296
!!linebreak:original
2c	.
(12dL	.
12c	.
12BnJ	.
12eL	.
12d	.
12cJ)	.
=297	=297
2f	.
(12eL	.
12d	.
12cJ	.
12BnL	.
12A	.
12GJ)	.
=298	=298
8F	.
8r	.
8E	.
8r	.
8D	.
8r	.
8G	.
8r	.
=299	=299
4C	.
4r	.
2r	.
=300	=300
1a-X	.
=301	=301
1g	.
=302	=302
1f#X	.
=303	=303
1f	.
=304	=304
[1f	.
=305	=305
4f]	.
(4cc	.
4bn	.
4cc)	.
=306	=306
!!linebreak:original
(4cc	.
4dd	.
4cc	.
4b-)	.
=307	=307
2.a	.
(4g	.
=308	=308
4.f	.
8g	.
4a	.
8b-L	.
8ccJ)	.
=309	=309
(4..dd	.
16ee)	.
2ee	.
16qqdd/LL	.
16qqee/JJ	.
=310	=310
(4ff	.
4dd	.
4cc	.
4b-	.
=311	=311
2.a	.
4g)	.
=312	=312
(4a	.
8ccL	.
8b-J	.
4a	.
8gL	.
8fJ)	.
=313	=313
(4B-	.
4G	.
4C	.
4c)	.
=314	=314
4F	.
(4g	.
4a	.
4g)	.
=315	=315
!!linebreak:original
(4f	.
4g	.
4a	.
4b-)	.
=316	=316
(4a	.
4b-	.
4cc	.
4b-)	.
=317	=317
(4a	.
4b-	.
4cc	.
4b-)	.
=318	=318
(2a	.
2b-	.
=319	=319
2cc	.
2dd)	.
=320	=320
4g	.
4r	.
2r	.
=321	=321
4a	.
4r	.
2r	.
=322	=322
4E 4G	.
4r	.
2r	.
=323	=323
4F 4A	.
4r	.
4r	.
(12fL	.
12e	.
12dJ	.
=324	=324
12cL	.
12d	.
12BnJ	.
2G)	.
(12fL	.
12e	.
12dJ	.
=325	=325
!!linebreak:original
12cL	.
12d	.
12BnJ	.
2G)	.
(12fL	.
12e	.
12dJ	.
=326	=326
12cL	.
12d	.
12BnJ)	.
12G'L	.
12B'	.
12d'J	.
12f'L	.
12g'	.
12b-'J	.
4r	.
=327	=327
1r	.
=328	=328
1r	.
=329	=329
1r	.
=330	=330
(12cL	.
12B-	.
12AJ	.
12GL	.
12A	.
12FJ)	.
12A'L	.
12c'	.
12f'J	.
12c'L	.
12f'	.
12a'J	.
=331	=331
12fL	.
12a	.
12ccJ	.
12aL	.
12f	.
12cJ	.
12AL	.
12f	.
12cJ	.
12AL	.
12c	.
12FJ	.
=332	=332
!!linebreak:original
2r	.
2f#X	.
=333	=333
1r	.
=334	=334
2r	.
2f#X	.
=335	=335
1r	.
=336	=336
2r	.
2a'	.
=337	=337
2G' 2g	.
2e' 2ee	.
=338	=338
(1e	.
=339	=339
2.g	.
4e)	.
=340	=340
(4f	.
4g	.
4a	.
4b-)	.
=341	=341
(2.g	.
4e)	.
=342	=342
(8fL	.
8g)	.
8f'	.
8g'J	.
(8aL	.
8b-)	.
8a'	.
8b-'J	.
=343	=343
(8gL	.
8a)	.
8g'	.
8a'J	.
(8b-L	.
8cc)	.
8b-'	.
8cc'J	.
=344	=344
!!linebreak:original
(8aL	.
8cc)	.
8a'	.
8cc'J	.
8ccL	.
8cc	.
8cc'	.
8cc'J	.
=345	=345
8ccL	.
8cc	.
8cc'	.
8cc'J	.
(8ddL	.
8ee)	.
8dd'	.
8ee'J	.
=346	=346
8ffL	.
8a'	.
8a'	.
8g'J	.
8a'L	.
8g'	.
8a'	.
8g'J	.
=347	=347
8a'L	.
8a'	.
8f'	.
8c'J	.
8A'L	.
8a'	.
8f'	.
8c'J	.
=348	=348
(4A	.
4G	.
4B-	.
4A)	.
=349	=349
2.A	.
8E'L	.
8F'J	.
=350	=350
(8DL	.
8E)	.
8F'	.
8E'J	.
(4F	.
4B-)	.
=351	=351
!!linebreak:original
1F	.
=352	=352
(4D	.
4G)	.
4G	.
4G	.
=353	=353
2.G	.
8F'L 8G	.
8F'J 8G	.
=354	=354
8EL 8G	.
8G	.
8c'	.
8Bn'J	.
4B-X	.
4A	.
=355	=355
2.B-	.
8g'L	.
8a'J	.
=356	=356
(8b-L	.
8a)	.
8g'	.
8f'J	.
(4e	.
4d)	.
=357	=357
[1e	.
=358	=358
1e_	.
=359	=359
2.e]	.
8a'L	.
8g'J	.
=360	=360
(8fL	.
8e)	.
8d'	.
8c'J	.
4B-	.
8A'L	.
8G'J	.
=361	=361
!!linebreak:original
(8FL	.
8E)	.
8D'	.
8C'J	.
4C	.
4C	.
=362	=362
1F	<
=363	=363
1F	sf
=364	=364
(2c	p
4A	.
4F)	.
=365	=365
(4.E	.
8G	.
8B-L	.
8G	.
8E	.
8CJ)	.
=366	=366
!LO:TX:b:i:t=cresc.	!
1F	.
=367	=367
1A-X	.
=368	=368
4An	p
4r	.
2r	.
=369	=369
2r	.
12r	.
12FL	.
12DJ	.
12AL	.
12F	.
12DJ	.
=370	=370
4C	.
2B-	.
4r	fp
=371	=371
!!linebreak:original
2r	.
12r	.
12GL	.
12EJ	.
12B-L	.
12G	.
12EJ	.
=372	=372
4C	.
2c	.
4r	fp
=373	=373
[1C	.
=374	=374
(4C]	.
4D	.
4E	.
4F)	.
=375	=375
[1C	.
=376	=376
(4C]	.
4E	.
4F	.
4G)	.
=377	=377
[1C	.
=378	=378
4C]	.
4r	.
2r	.
=379	=379
!LO:TX:a:i:t=cresc.	!
!LO:TX:b:i:t=cresc.	!
12fL	.
12a	.
12fJ	.
12ccL	.
12a	.
12fJ	.
12cL	.
12f	.
12cJ	.
12aL	.
12f	.
12cJ	.
=380	=380
4B-	.
4r	.
2r	.
=381	=381
!!linebreak:original
12B-L	.
12e	.
12B-J	.
12gL	.
12e	.
12B-J	.
12GL	.
12B-	.
12GJ	.
12eL	.
12B-	.
12GJ	.
=382	=382
12AL	.
12cc	.
12aJ	.
12fL	.
12a	.
12fJ	.
12cL	.
12f	.
12cJ	.
12AL	.
12c	.
12AJ	.
=383	=383
12GL	.
12b-	.
12gJ	.
12eL	.
12g	.
12eJ	.
12B-L	.
12e	.
12B-J	.
12GL	.
12B-	.
12B-J	.
=384	=384
12CL 12c	.
12C 12c	.
12CJ 12c	.
12CL 12c	.
12C 12c	.
12CJ 12c	.
12CL 12c	.
12C 12c	.
12CJ 12c	.
12CL 12c	.
12C 12c	.
12CJ 12c	.
=385	=385
!!linebreak:original
[1C [1c	.
=386	=386
!LO:TX:b:i:t=dim.	!
1C] 1c]	.
=387	=387
1C 1A	.
=388	=388
1C 1B-	sf
=389	=389
1C 1A	p
=390	=390
1C 1B-	sf
=391	=391
!LO:TX:b:i:t=dim.	!
[1C [1A	p
=392	=392
1C_ 1A_	.
=393	=393
1C] 1A]	.
=394	=394
2C' 2A	.
2C' 2A	.
=395	=395
1C 1A	.
=396	=396
2f'	pp
2f'	.
=397	=397
1f	.
=398	=398
!LO:TX:b:i:t=cresc.	!
1g	.
=399	=399
4a	f
4r	.
4C' 4c	ff
4r	.
=400	=400
4F'	.
4r	.
2r	.
==401	==401
!!linebreak:original
*k[b-e-]	*
*B-:	*
*M3/8	*
!LO:TX:a:B:t=Allegretto vivace e sempre scherzando.	!
4.r	.
=402	=402
4.r	.
=403	=403
4.r	.
=404	=404
4.r	.
=405	=405
4.r	pp
=406	=406
4.r	.
=407	=407
4.r	.
=408	=408
4.r	.
=409	=409
16A-X'LL	pp
16A-'JJ	.
8A-'L	.
8A-'J	.
=410	=410
16A-X'LL	.
16A-'JJ	.
8A-'L	.
8A-'J	.
=411	=411
16A-X'LL	.
16A-'	.
16A-'	.
16A-'	.
16A-'	.
16A-'JJ	.
=412	=412
4.A-X	.
=413	=413
4.r	.
=414	=414
4.r	.
=415	=415
4.r	.
=416	=416
4.r	.
=417	=417
!LO:TX:b:i:t=cresc.	!
16e-'LL	.
16e-'JJ	.
8e-'L	.
8e-'J	.
=418	=418
16e-'LL	.
16e-'JJ	.
8e-'L	.
8e-'J	.
=419	=419
!!linebreak:original
16e-'LL	.
16e-'JJ	.
8e-'L	.
8e-'J	.
=420	=420
16e-LL	.
16e-	.
16e-	.
16e-	.
16e-	.
16e-JJ	.
=421	=421
[4.e-	.
=422	=422
4.e-]	>
=423	=423
(8fL	p
!LO:TX:b:i:t=dol.	!
8e-	.
8dJ	.
=424	=424
16.GLL	.
32cJJk	.
8dL	.
8cJ)	.
=425	=425
(8B-L	.
8A	.
8B-J	.
=426	=426
16.e-LL	.
32cJJk	.
8B-L	.
8AJ)	.
=427	=427
(16.B-LL	f
32dJJk)	.
8G'	.
8r	.
=428	=428
8r	.
8c'	.
8r	p
=429	=429
!!linebreak:original
16FLL	ff
16FJJ	.
8FL	.
8FJ	.
=430	=430
16FLL	.
16FJJ	.
8FL	.
8FJ	.
=431	=431
16FLL	.
16F	.
16F	.
16F	.
16F	.
16FJJ	.
=432	=432
4.f	.
=433	=433
16F#XLL	sf
16F#	.
16F#	.
16F#	.
16F#	.
16F#JJ	.
=434	=434
4.f#X	sf
=435	=435
4.r	.
=436	=436
4.r	p
=437	=437
16c#XLL 16en	p
16c# 16e	.
16c# 16e	.
16c# 16e	.
16c# 16e	.
16c#JJ 16e	.
=438	=438
4.r	.
=439	=439
16dLL	fp
16d	.
16d	.
16d	.
16d	.
16dJJ	.
=440	=440
!!linebreak:original
16enLL	.
16e	.
16e	.
16e	.
16e	.
16eJJ	.
=441	=441
16fLL	.
16f	.
16f	.
16f	.
16f	.
16fJJ	.
=442	=442
16enLL	.
16e	.
16e	.
16e	.
16e	.
16eJJ	.
=443	=443
8a	.
8r	.
16r	.
16d'	.
=444	=444
8c#X	.
8r	.
16r	.
16D'	.
=445	=445
8C#X	.
8r	.
8r	.
=446	=446
4.r	.
=447	=447
(8.cL	.
!LO:TX:b:i:t=cresc.	!
16enL	.
16d	.
16eJJ)	.
=448	=448
4f	f
(16fLL	>
16dJJ)	.
=449	=449
!!linebreak:original
(8c#X'L	p
8c#'	.
8c#'J)	.
=450	=450
8d	.
!LO:TX:b:i:t=cresc.	!
(8AL	.
8BntJ	.
8qqA/L	.
16qqB/Jk)	.
=451	=451
(8c'L	.
8c'	.
8c'J)	.
=452	=452
(8.cL	sf
8A	>
16GJk)	]
=453	=453
(8.EnL	p
16AJk)	.
(16ALL	.
16c#XJJ)	.
=454	=454
16d'LL	pp
16c#X'JJ	.
[4d	.
=455	=455
8dL]	.
16c#X'L	.
16d'JJ	.
[8c#	.
=456	=456
8c#]	.
16d'LL	.
16c#X'JJ 16en	.
[8d	.
=457	=457
!!linebreak:original
8d]	.
16c#X'LL 16en	.
16d'J	.
8c#J	.
=458	=458
!LO:TX:b:i:t=cresc.	!
(8d	.
[4B-)	.
=459	=459
(8B-L]	]
8G	p
8FJ)	.
=460	=460
(16.DLL	.
32B-JJk)	.
[4B-	.
=461	=461
(8B-L]	]
8G	p
8FJ)	.
=462	=462
16DLL	.
16DJ	.
8D	.
8DJ	.
=463	=463
16DLL	.
16DJJ	.
8DL	.
8DJ	.
=464	=464
16DLL	.
16D	.
16D	.
16D	.
16D	.
16DJJ	.
=465	=465
!!linebreak:original
(4.D	.
=466	=466
4.C	.
=467	=467
4G-X	>
8F)	.
=468	=468
4.B-	pp
=469	=469
!LO:TX:a:i:t=cresc.	!
4.r	.
=470	=470
!	!LO:DY:a
4.r	sf
=471	=471
4.r	.
=472	=472
!	!LO:DY:a
4.r	pp
=473	=473
4.r	.
=474	=474
16g'LL	pp
16f'	.
16e-'	.
16d'	.
16c'	.
16f'JJ	.
=475	=475
8d'	.
4B-	.
=476	=476
!	!LO:DY:a
4.r	pp
=477	=477
4.r	.
=478	=478
16r	.
16GLL	.
!LO:TX:b:i:t=cresc.	!
16G	.
16GJ	.
(8GJ	.
=479	=479
16ALL)	pp
16AJ	.
8A	.
8AJ	.
=480	=480
16ALL	.
16AJ	.
8A	.
8AJ	.
=481	=481
!!linebreak:original
16ALL	.
16A	.
16A	.
16A	.
16A	.
16AJJ	.
=482	=482
4.A	.
=483	=483
4.r	.
=484	=484
4.r	.
=485	=485
4.r	.
=486	=486
4.r	.
=487	=487
4.r	.
=488	=488
4.r	.
=489	=489
4r	.
16c#XLL	f
16enJJ	.
=490	=490
16qqc#X/	sf
16B-LL	.
16AJJ	.
8r	.
8r	.
=491	=491
4.r	.
=492	=492
16f#XLL	f
16f#	.
16f#JJ	.
16r	.
8r	.
=493	=493
16gLL	.
16g	.
16gJJ	.
16r	.
8r	.
=494	=494
4.cc#X	sf
=495	=495
!!linebreak:original
8ddL	.
16f#XL	.
16f#JJ	.
8r	.
=496	=496
16f#XLL	.
16f#JJ	.
8r	.
16f#LL	.
16f#JJ	.
=497	=497
8r	.
16gLL	.
16gJJ	.
8r	.
=498	=498
16gLL 16b-	sf
16g 16b-	.
16g 16b-	.
16g 16b-	.
16g 16b-	.
16gJJ 16b-	.
=499	=499
16DLL	pp
16D	.
16D	.
16D	.
16D	.
16DJJ	.
=500	=500
16CLL	.
16C	.
16G-X	.
16G-	.
16F	.
16FJJ	.
=501	=501
16FLL 16f	ff
16FJJ 16f	.
8FL 8f	.
8FJ 8f	.
=502	=502
!!linebreak:original
16FLL 16f	.
16FJJ 16f	.
8FL 8f	sf
8FJ 8f	.
=503	=503
16FLL 16f	.
16F 16f	.
16F 16f	.
16F 16f	.
16F 16f	.
16FJJ 16f	.
=504	=504
16F'LL 16f	.
16B-'	.
16d'	.
16f'	.
16e-'	.
16c'JJ	.
=505	=505
16dLL	.
16B-	.
16F	.
16D	.
16F	.
16FJJ	.
=506	=506
16F	.
16B-LL	.
16d	.
16f	.
16e-	.
16cJJ	.
=507	=507
16dLL	.
16D	.
16d	.
16dJJ	.
16dLL	.
16dJJ	.
=508	=508
16enLL	.
16e	.
16e	.
16e	.
16e	p
16eJJ	.
=509	=509
!!linebreak:original
16fLL	.
16f	.
16f	.
16f	.
16f	.
16fJJ	.
=510	=510
16gLL	.
16g	.
16g	.
16g	.
16g	f
16gJJ	.
=511	=511
16aLL	.
32AL	.
32B-JJJ	.
16cLL	.
16A	.
16d-X	.
16BnJJ	.
=512	=512
8en	.
8r	.
8r	.
=513	=513
8r	.
16En'LL	sf
16C'JJ	.
8r	.
=514	=514
4.r	.
=515	=515
4.r	.
=516	=516
8r	.
(4A-X	f
=517	=517
4B-	>
[8c)	.
=518	=518
8c]	p
8r	.
8r	.
=519	=519
!!linebreak:original
4r	.
!LO:TX:b:i:t=cresc.	!
8f	.
=520	=520
4f	.
8f	.
=521	=521
(8f	>
16en)	.
16GLL	.
16c	.
16B-JJ	.
=522	=522
8A-X	]
8r	.
(8F	.
=523	=523
8EnL)	.
8G	.
8EJ)	.
=524	=524
(4F	<
8A-X)	>
=525	=525
8GL)	]
8B-	.
8GJ)	.
=526	=526
(4A-X	<
8c)	>
=527	=527
(8BnL	]
8d	.
8fJ)	.
=528	=528
8e-X	.
8r	.
8r	.
=529	=529
4.r	.
=530	=530
!!linebreak:original
16r	f
16c'LL	.
16cc'	.
16c'	.
16g'	.
16f'JJ	.
=531	=531
16en'LL	.
16dd-X'	.
16cc'	.
16b-X'	.
16a-X'	.
16g'JJ	.
=532	=532
(16.a-XLL	.
32gJJk)	.
16fLL	.
16f	.
16f	.
16fJJ	.
=533	=533
16fLL	.
16f	.
16f	.
16f	.
16f	sf
16fJJ	.
=534	=534
16fLL	.
16f	.
16en	sf
16e	.
16g	.
16gJJ	.
=535	=535
8a-X	.
8r	.
8r	.
=536	=536
4r	.
(8B-	p
=537	=537
!!linebreak:original
16.A-XLL	<
32GJJk	>
8F)	.
8r	]
=538	=538
4r	.
(8d-X	.
=539	=539
16.cLL	<
32B-JJk	>
8A-X)	.
8r	]
=540	=540
4r	.
8f	.
=541	=541
(16.e-LL	.
!LO:TX:b:i:t=cresc.	!
32fJk	.
8g	.
8a-XJ	.
=542	=542
4b-)	.
(8cc	f
=543	=543
16dd-XLL)	.
16cc'	.
16b-'	.
16a-X'	.
16g'	.
16f'JJ	.
=544	=544
16g'LL	.
16f'	.
16e-'	.
16d-X'	.
16c'	.
16B-'JJ	.
=545	=545
!!linebreak:original
16c'LL	.
16B-'	.
16A-X'	.
16f'	.
16e-'	.
16d-X'JJ	.
=546	=546
16c'LL	.
16B-'	.
16A-X'	.
16G-X'	.
16F'	sf
16E-'JJ	.
=547	=547
16D-X'LL	.
16F'	.
16En'	.
16G'	.
16c'	.
16c'JJ	.
=548	=548
8F	p
8r	.
16r	.
16c	.
=549	=549
8f	.
16r	.
16d-X'LL	.
16c'	.
16B-'JJ	.
=550	=550
16A-X'LL	.
16G'	.
16F'JJ	.
16r	.
8r	.
=551	=551
16cLL	pp
16cJ	.
8c	.
8d-XJ	.
=552	=552
!!linebreak:original
16d-XLL	.
16d-J	.
8B-	.
8B-J	.
=553	=553
16cLL	.
!LO:TX:a:i:t=cresc.	!
16c	.
16d-X	.
16f	.
16f	.
16fJJ	.
=554	=554
16e-LL	.
16e-	.
16g-X	.
16g-	.
16g-	.
16g-JJ	.
=555	=555
16fLL	fp
16f	.
16f	.
16f	.
16f	.
16fJJ	.
=556	=556
16g-XLL	.
16g-	.
16g-	.
16g-	.
16g-	.
16g-JJ	.
=557	=557
16a-X	.
16A-X'LL	.
16d-X'	.
16f'JJ	.
8r	.
=558	=558
16r	.
16A-X'LL	.
16e-'	.
16g-X'JJ	.
16r	.
16c'	.
=559	=559
!!linebreak:original
16d-XKL	.
8d-J	.
16D-X'LL	.
16F'	.
16A-X'JJ	.
=560	=560
4.r	.
=561	=561
8r	.
16r	.
16CLL	.
16F	.
16A-XJJ	.
=562	=562
4.r	.
=563	=563
8r	.
16r	.
16BnLL	.
16d	.
16fJJ	.
=564	=564
4.r	.
=565	=565
8r	.
16r	.
!LO:TX:a:i:t=cresc.	!
16A-XLL	.
16d	.
16fJJ	.
=566	=566
4.r	.
=567	=567
16GKL	f
8G	.
8G	.
16GJk	.
=568	=568
!!linebreak:original
16GLL	.
16G	.
16G	.
16G	.
16G	.
16GJJ	.
=569	=569
16F#XLL	ff
16F#JJ	.
4F#	.
=570	=570
4.r	.
=571	=571
(8BnL	p
!LO:TX:b:i:t=dol.	!
8A#X	.
8BJ	.
=572	=572
8G#XL	.
8d#X	.
8c#XJ)	.
=573	=573
(8BnL	.
8A#X	.
8BJ	.
=574	=574
8G#XL	.
8F#X	.
8f#XJ)	.
=575	=575
(8f#XL	.
8enJ)	.
8r	.
=576	=576
8r	.
8c#X	.
8r	.
=577	=577
!!linebreak:original
16Bn'LL	pp
16F#X'	.
16B'	.
16F#'	.
16B'	.
16F#'JJ	.
=578	=578
16c#X'LL	.
16F#X'	.
16c#'	.
16F#'	.
16c#'	.
16F#'JJ	.
=579	=579
16BnLL	.
16F#X	.
16B	.
16F#	.
16B	.
16F#JJ	.
=580	=580
16B-LL	.
16F#X	.
16B-	.
16F#	.
16B-	.
16F#JJ	.
=581	=581
16G#XLL	.
16E-	.
16G#	.
16E-	.
16G#	.
16E-JJ	.
=582	=582
!LO:TX:a:i:t=poco rit.	!
!LO:TX:b:i:t=dim.	!
16F#XLL	.
16E-	.
16F#	.
16E-	.
16F#	.
16E-JJ	.
=583	=583
!LO:TX:b:i:t=cresc.	!
[4.F	.
=584	=584
!LO:TX:a:i:t=a tempo	!
4.F]	.
=585	=585
!!linebreak:original
16G-X'LL	p
16d-X'	.
16B-'	.
16d-'	.
16B-'	.
16d-'JJ	.
=586	=586
16A-X'LL	.
16d-X'	.
16A-'	.
16d-'	.
16A-'	.
16d-'JJ	.
=587	=587
16B-LL	.
16B-	.
16G-X	.
16B-	.
16G-	.
16B-JJ	.
=588	=588
16FLL	.
16B-	.
16F	.
16B-	.
16F	.
16B-JJ	.
=589	=589
16G-XLL	.
16G-	.
16E-	.
16G-	.
16E-	.
16G-JJ	.
=590	=590
!LO:TX:a:i:t=poco rit.	!
!LO:TX:b:i:t=dim.	!
16D-XLL	.
16F	.
16D-	.
16F	.
16D-	.
16FJJ	.
=591	=591
!LO:TX:a:i:t=a tempo	!
[4.Gn	.
=592	=592
4.G]	<
=593	=593
!!linebreak:original
!	!LO:DY:a
[4.C [4.G	ff
=594	=594
4.C_ 4.G_	.
=595	=595
4C] 4G]	.
8C 8G	.
=596	=596
(4e-X	.
8f#X)	.
=597	=597
!	!LO:DY:a
16GLL 16g	ff
16GJ 16g	.
8G 8g	.
8GJ 8g	.
=598	=598
16GLL 16g	.
16GJ 16g	.
8G 8g	.
8GJ 8g	.
=599	=599
16GLL 16g	.
16G 16g	.
16G 16g	.
16G 16g	.
16G 16g	.
16GJJ 16g	.
=600	=600
4.G 4.g	sf
=601	=601
16r	.
16fLL	.
16a	.
16dd	.
16ff	.
16dJJ	.
=602	=602
!!linebreak:original
16fLL	.
16a	.
16A	.
16d	.
16f	.
16FJJ	.
=603	=603
16G#XLL	.
16Bn	.
16d	.
16f	.
16g#X	.
16bnJJ	.
=604	=604
16g#XLL	.
16f	.
16d	.
16BnJJ	.
16G#XLL	.
16FJJ	.
=605	=605
8F#X	.
8r	.
16r	.
16F#	.
=606	=606
16ALL	.
16c	.
16d#X	.
16D#X	.
16F#X	.
16AJJ	.
=607	=607
16cLL	.
16c	.
16c	.
16c	.
16c	.
16cJJ	.
=608	=608
16cLL	.
16cJJ 16f#X	.
16cLL 16f#	.
16c 16f#	.
16c 16f#	.
16cJJ 16f#	.
=609	=609
!!linebreak:original
16cLL 16f#X	.
16c 16f#	.
16c 16f#	.
16c 16f#	.
16c 16f#	.
16cJJ 16f#	.
=610	=610
16cLL 16f#X	>
16c 16f#	.
16c 16f#	.
16c 16f#	.
16c 16f#	.
16cJJ 16f#	.
=611	=611
8c 8en	p
8r	.
8r	.
=612	=612
16eenLL	pp
16ee	.
16ee	.
16ee	.
16ee	.
16eeJJ	.
=613	=613
16cc'LL	.
16cc'J	.
8cc'	.
8dd'J	.
=614	=614
16ccLL	.
16ccJ	.
8cc	.
8ccJ	.
=615	=615
16ddLL	.
16ddJ	.
8dd	.
8ddJ	.
=616	=616
16cc'LL	.
16cc'	.
16cc'	.
16a'	.
16bn'	.
16cc'JJ	.
=617	=617
!!linebreak:original
!LO:TX:b:i:t=sempre	!
16dd'LL	.
16cc'	.
16bn'	.
16a'	.
16g#X'	p
16en'JJ	.
=618	=618
4.r	.
=619	=619
8r	.
16B-X'LL	p
16A'	.
16G'	.
16c#X'JJ	.
=620	=620
16c'LL	.
16B-'	.
16A'	.
16e-X'	.
16d'	.
16c'JJ	.
=621	=621
16Bn'LL	.
16f'	.
16e-'	.
16d'JJ	.
8r	.
=622	=622
4r	.
16g'LL	.
16f'JJ	.
=623	=623
16e-'LL	.
16g'JJ	.
8r	.
16e-'LL	.
16d'JJ	.
=624	=624
!!linebreak:original
16c'LL	.
16e-'JJ	.
8r	.
8r	.
=625	=625
16ddLL	.
16cc	.
16b-	.
16dd	.
16g	.
16b-JJ	.
=626	=626
16ee-LL	.
16ddJJ	.
16ccLL	.
16ee-	.
!LO:TX:b:i:t=sempre stacc. e piano	!
16a	.
16ccJJ	.
=627	=627
16ddLL	.
16cc	.
16b-	.
16dd	.
16ee-	.
16ddJJ	.
=628	=628
16ccLL	.
16ee-	.
16ff	.
16ee-	.
16dd	.
16ffJJ	.
=629	=629
16ggLL	.
16gJJ	.
16fLL	.
16g	.
16a-X	.
16b-JJ	.
=630	=630
16ccLL	.
16b-	.
16a-X	.
16g	.
16f	.
16e-JJ	.
=631	=631
!!linebreak:original
16dLL	.
16c	.
16Bn	.
!LO:TX:b:i:t=cresc.	!
16a-X	.
16g	.
16fJJ	.
=632	=632
16e-LL	.
16d	.
16c	.
16d	.
16c	.
16B-XJJ	.
=633	=633
16ALL	.
16G	.
16F	.
16E-	.
16c	.
16B-JJ	.
=634	=634
16ALL	.
16G	.
16d-X	.
16c	.
16B-	.
16AJJ	.
=635	=635
16GLL	.
16F	.
16E-	.
16D	.
16C	.
16DJJ	.
=636	=636
16E-LL	.
16F	.
16G	.
16G	.
16F	.
16AJJ 16a	.
=637	=637
16ALL 16a	ff
16AJ 16a	.
8AJ 8a	.
8r	.
=638	=638
4.r	.
=639	=639
!!linebreak:original
(4.B-	p
=640	=640
4.d-X	.
=641	=641
8c-XL	.
8e-	.
8A-XJ)	.
=642	=642
8.B-	.
16r	.
8r	.
=643	=643
4.r	.
=644	=644
8r	.
16r	.
16D-X'LL	.
16G-X'	.
16B-'JJ	.
=645	=645
16A-X'LL	.
16F'	.
16G-X'	.
16E-'	.
16A-'	.
16C'JJ	.
=646	=646
(4.D-X	.
=647	=647
4.F	.
=648	=648
8E-L	<
8G-X	.
8CJ)	>
=649	=649
8.D-X	]
16A-X'LL	.
16d-X'	.
16f'JJ	.
=650	=650
!!linebreak:original
16e-'LL	.
16d-X'	.
16c'	.
16B-'	.
16c'	.
16A-X'JJ	.
=651	=651
16d-X'LL	.
16f'	.
16a-X'JJ	.
=652	=652
8r	.
16r	.
16f'LL	.
16g'	.
16E-JJ	.
=653	=653
!LO:TX:b:i:t=cresc.	!
16A-XLL	.
16A-J	.
8A-	.
8A-J	.
=654	=654
16A-XLL	.
16A-J	.
8A-	.
8A-J	.
=655	=655
16A-XLL	.
16A-	.
16A-	.
16A-	.
16A-	.
16A-JJ	.
=656	=656
8A-XL	.
8c 8e-	.
8cJ 8e-	.
=657	=657
[4.c [4.e-	f
=658	=658
4.c] 4.e-]	>
=659	=659
!!linebreak:original
8fL	p
!LO:TX:b:i:t=dol.	!
8e-	.
8dJ	.
=660	=660
16.gLL	.
32e-Jk	.
8d	.
8cJ	.
=661	=661
(8B-L	.
!LO:TX:b:i:t=cresc.	!
8A	.
8B-J	.
=662	=662
16.e-LL)	.
32cJk	.
8B-	.
8AJ	.
=663	=663
16.dLL	f
32B-JJk	.
8A 8e-	.
8r	.
=664	=664
8r	.
8F 8c	f
8r	.
=665	=665
16FLL	ff
16FJ	.
8F	.
8FJ	.
=666	=666
16FLL	.
16FJ	.
8F	.
8FJ	.
=667	=667
!!linebreak:original
16FLL	.
16F	.
16F	.
16F	.
16F	.
16FJJ	.
=668	=668
4.f	.
=669	=669
16F#XLL	sf
16F#	.
16F#	.
16F#	.
16F#	.
16F#JJ	.
=670	=670
4.f#X	sf
=671	=671
16gLL 16b-	p
16g 16b-	.
16g 16b-	.
16g 16b-	.
16g 16b-	.
16gJJ 16b-	.
=672	=672
4.r	.
=673	=673
4.r	.
=674	=674
4.r	.
=675	=675
16gLL	fp
16g	.
16g	.
16g	.
16g	.
16gJJ	.
=676	=676
16aLL	.
16a	.
16a	.
16a	.
16a	.
16aJJ	.
=677	=677
16b-LL	p
16b-	.
16b-	.
16b-	.
16b-	.
16b-JJ	.
=678	=678
!!linebreak:original
16gLL	.
16g	.
16g	.
16g	.
16g	.
16gJJ	.
=679	=679
8a	.
8r	.
16r	.
16g	.
=680	=680
8f#X	.
8r	.
16r	.
16G	.
=681	=681
8F#X	.
8r	.
8r	.
=682	=682
4.r	.
=683	=683
!LO:TX:b:i:t=cresc.	!
(8.fnL	.
16aL	.
16g	.
16aJJ)	.
=684	=684
4b-	f
(16b-LL	>
16gJJ)	]
=685	=685
(8f#X'L	p
8f#'	.
8f#'J)	.
=686	=686
!LO:TX:b:i:t=cresc.	!
(8gL	.
8d	.
8entJ)	.
=687	=687
!!linebreak:original
(8fn'L	.
8f'	.
8f'J)	.
=688	=688
(8.f	f
8dL	>
16GJk)	]
=689	=689
8.F#XL	p
(16AL	.
16B-	.
16f#XJJ)	.
=690	=690
16g'LL	pp
16f#X'JJ	.
[4g	.
=691	=691
8gL]	.
16f#X'L	.
16g'J	.
[8f#J	.
=692	=692
8f#L]	.
16gL	.
16f#XJ	.
[8gJ	.
=693	=693
8gL]	.
16f#XL	.
16gJ	.
8f#J	.
=694	=694
!LO:TX:b:i:t=cresc.	!
(8g	.
[4c)	sf
=695	=695
8cL]	]
(8c	p
8B-J)	.
=696	=696
!LO:TX:b:i:t=cresc.	!
(16.B-LL	.
32E-JJk)	.
[4E-	sf
=697	=697
!!linebreak:original
(8E-L]	p
8F#X	.
8GJ)	.
=698	=698
16GLL	pp
16GJ	.
8G	.
8GJ	.
=699	=699
16GLL	.
16G	.
16G	.
16G	.
16G	.
16GJJ	.
=700	=700
(4.G	.
=701	=701
4.A	.
=702	=702
4.B-	.
=703	=703
4D-X	.
8C)	>
=704	=704
(4.F	pp
=705	=705
4.D	.
=706	=706
[4.C)	.
=707	=707
8CL]	]
!	!LO:DY:a
8D	>
8EnJ	>
=708	=708
4F	]
8r	.
=709	=709
4.r	.
=710	=710
4.r	.
=711	=711
4.r	.
=712	=712
4.r	.
=713	=713
4.r	.
=714	=714
!LO:TX:b:i:t=cresc.	!
4.r	.
=715	=715
!!linebreak:original
!LO:TX:b:i:t=cresc.	!
!LO:TX:b:i:t=cresc.	!
(4.een	pp
=716	=716
4.cc)	.
=717	=717
(8bnL	.
8cc#X	<
8dd#XJ	.
=718	=718
4.een)	.
=719	=719
16Bn'LL	pp
16en'	.
16g#X'	.
16e'	.
16f#X'	.
16d#X'JJ	.
=720	=720
8en'	.
4Bn'	.
=721	=721
4.r	.
=722	=722
4.r	.
=723	=723
16cc'LL	.
!LO:TX:b:i:t=cresc.	!
16bn'	.
16a'	.
16g'	.
16f#X'	.
16a'JJ	.
=724	=724
16d#XLL	.
16f#X	.
16c	.
16BnJJ	.
8r	.
=725	=725
!!linebreak:original
4r	.
16G#X'LL	f
16Bn'JJ	.
=726	=726
32qqGn/	sf
(16FLL	.
16En)	.
16qqG/	sf
(16F	.
16E)	.
16qqG/	sf
(16F	.
16EJJ)	.
=727	=727
16c#XLL 16en	ff
16c#JJ 16e	.
8r	.
16c#LL 16e	.
16c#JJ 16e	.
=728	=728
8r	.
16c#XLL 16en	.
16c#JJ 16e	.
8r	.
=729	=729
16dLL 16f	.
16dJJ 16f	.
8r	.
16dLL 16f	.
16dJJ 16f	.
=730	=730
16BnLL	sf
16B	.
16B	.
16B	.
16B	.
16BJJ	.
=731	=731
8c#XL	ff
16c#L 16en	.
16c#JJ 16e	.
8r	.
=732	=732
!!linebreak:original
16c#XLL 16en	.
16c#JJ 16e	.
8r	.
16c#LL 16e	.
16c#JJ 16e	.
=733	=733
8r	.
16dLL 16f	.
16dJJ 16f	.
8r	.
=734	=734
16g#XLL	sf
16g#	.
16g#	.
16g#	.
16g#	.
16g#JJ	.
=735	=735
!	!LO:DY:a
16aLL	pp
16AJJ	.
16ALL	.
16A	.
16A	.
16AJJ	.
=736	=736
16cnLL	.
16c	.
16c	.
16cJJ	.
16FLL	.
16FJJ	.
=737	=737
16F'LL	ff
16B-'	.
16d'	.
16B-'	.
16cn'	.
16A'JJ	.
=738	=738
8B-'	.
4F	sf
=739	=739
!!linebreak:original
16GLL	.
16F	.
16E-	.
16D	.
16C	.
16AJJ	.
=740	=740
16DLL	.
16F	.
16B-	.
16d	.
16f	.
16e-JJ	.
=741	=741
16dLL	.
16B-	.
16F	.
16F	.
16F	.
16E-JJ	.
=742	=742
16DLL	.
16DJJ	.
16dLL	sf
16d	.
16d	.
16dJJ	.
=743	=743
16dLL	p
16DJJ	.
16dLL	.
16d	.
16d	sf
16dJJ	p
=744	=744
16e-LL	.
16E-	.
16e-	.
16e-JJ	.
16e-LL	sf
16e-JJ	p
=745	=745
16e-LL	.
16E-JJ	.
16e-LL	.
16e-	.
16e-	sf
16e-JJ	p
=746	=746
!!linebreak:original
16fLL	.
16F	.
16f	.
16fJJ	.
16fLL	sf
16fJJ	p
=747	=747
16gLL	.
16G	.
16g	.
16gJJ	.
16gLL	sf
16gJJ	p
=748	=748
16aLL	.
16A	.
16a	.
16aJJ	.
16gLL	sf
16gJJ	p
=749	=749
16aLL	.
16A	.
16A	.
16AJJ	.
16GLL	sf
16GJJ	p
=750	=750
16ALL	.
16a	.
16a	.
16aJJ	.
16gLL	sf
16gJJ	p
=751	=751
8a	f
8r	.
8r	.
=752	=752
8r	.
16A'LL	f
16F'JJ	.
8r	.
=753	=753
4.r	.
=754	=754
!	!LO:DY:a
4.r	p
=755	=755
!!linebreak:original
!LO:TX:a:i:t=cresc.	!
8r	.
4c-X	f
=756	=756
4e-	>
[8f	.
=757	=757
8f]	p
16r	.
16g-X'LL	.
16f'	.
16e-'JJ	.
=758	=758
!LO:TX:b:i:t=cresc.	!
16d-X'LL	.
16c'	.
16B-'JJ	.
16r	.
8r	.
=759	=759
4.r	.
=760	=760
4.r	.
=761	=761
8r	.
8d-XL	p
8d-J	.
=762	=762
(8e-L	.
8c	.
8AJ)	.
=763	=763
(8B-L	.
8d-X)	.
8d-J	.
=764	=764
(8cL	.
8e-	.
8cJ)	.
=765	=765
(8d-XL	.
8f)	.
8fJ	.
=766	=766
(8enL	.
8g)	.
8EnJ	.
=767	=767
!!linebreak:original
(16.FLL	.
!LO:TX:b:i:t=cresc.	!
32GJk	.
8A-X	.
8B-J	.
=768	=768
4c	.
8d-X	f
=769	=769
16e-X'LL)	.
16d-X'	.
16c'	.
16B-'	.
16A-X'	.
16G'JJ	.
=770	=770
16A-X'LL	.
16G'	.
16F'	.
16g-X'	.
16f'	.
16e-'JJ	.
=771	=771
16d-X'LL	.
16c'	.
16B-X'	.
16B-'	.
16B-'	.
16B-'JJ	.
=772	=772
16B-'LL	.
16B-'	.
16B-'	.
16b-'	.
16B-'	.
!	!LO:DY:a
16B-'JJ	sf
=773	=773
16B-'LL	.
16B-'	.
16A'	.
16c'	.
16F'	.
16f'JJ	.
=774	=774
8B-	.
8r	.
8r	.
=775	=775
!!linebreak:original
4r	.
8e-	p
=776	=776
16.d-XLL	<
32cJJk	>
4B-	.
=777	=777
4r	]
8g-X	<
=778	=778
16.fLL	.
32e-JJk	>
4d-X	.
=779	=779
4r	]
8b-	.
=780	=780
!LO:TX:b:i:t=cresc.	!
16.a-XLL	.
32b-Jk	.
8cc	.
8dd-XJ	.
=781	=781
4ee-	.
(8ff	sf
=782	=782
16gg-XLL)	.
16ff'	.
16ee-'	.
16dd-X'	.
16cc'	.
16b-'JJ	.
=783	=783
16ccLL	.
16b-	.
16a-X	.
16g-X	.
16f	.
16e-JJ	.
=784	=784
!!linebreak:original
16d-X'LL	.
16c'	.
16B-'	.
16B-	.
16B-	.
16B-JJ	.
=785	=785
16B-LL	.
16B-	.
16B-	.
16b-	.
16b-	.
16b-JJ	.
=786	=786
16b-LL	.
!	!LO:DY:a
16B-	>
16A	.
16c	.
16F	.
16fJJ	.
=787	=787
8f	]
8r	.
16r	.
16f	.
=788	=788
8b-	.
16r	.
16g-X'LL	.
16f'	.
16e-'JJ	.
=789	=789
16d-X'LL	.
16c'	.
16B-'JJ	.
=790	=790
16r	.
16B-	pp
8B-L	.
8B-J	.
=791	=791
!!linebreak:original
16B-LL	.
16B-JJ	.
8B-L	.
8AJ	.
=792	=792
16B-LL	.
16b-JJ	.
!LO:TX:b:i:t=cresc.	!
16b-LL	.
16b-	.
16b-	.
16b-JJ	.
=793	=793
16a-XLL	.
16a-	.
16cc	.
16cc	.
16cc	.
16ccJJ	.
=794	=794
16b-LL	fp
16B-'JJ	.
16B-'LL	.
16B-'	.
16B-'	.
16B-'JJ	.
=795	=795
16c-X'LL	.
16c-'	.
16c-'	.
16d-X'	.
16a-X'	.
16cc-X'JJ	.
=796	=796
16b-'LL	.
16d-X'	.
16g-X'	.
16b-'JJ	.
8r	.
=797	=797
16r	.
16D-X'LL	.
16A-X'	.
16c-X'JJ	.
16r	.
16f'	.
=798	=798
!!linebreak:original
8g-X'	.
16r	.
16G-X'LL	.
16B-'	.
16d-X'JJ	.
=799	=799
4.r	.
=800	=800
8r	.
16r	.
16F'LL	.
16B-'	.
16d-X'JJ	.
=801	=801
4.r	.
=802	=802
16r	.
!LO:TX:b:i:t=cresc.	!
16EnLL	.
16G	.
16B-JJ	.
8r	.
=803	=803
16r	.
16D-XLL	.
16F	.
16B-JJ	.
8r	.
=804	=804
8En	p
8r	.
8r	.
=805	=805
4.r	.
=806	=806
4.r	.
=807	=807
8r	.
16B-'LL	p
16G'	.
16c'	.
16En'JJ	.
=808	=808
!!linebreak:original
16F'LL	.
16A'	.
16c'	.
16A'	.
16B-'	.
16G'JJ	.
=809	=809
16dLL	.
16B-	.
16c	.
16A	.
16e-	.
16cJJ	.
=810	=810
16dLL	.
16B-	.
16f	.
16d	.
16e-	.
16cJJ	.
=811	=811
16gLL	.
16e-	.
16c	.
16e-	.
16A	.
16fJJ	.
=812	=812
!LO:TX:b:i:t=cresc.	!
16fLL	.
16DJJ	.
16DLL	.
16G	.
16E-	.
16GJJ	.
=813	=813
16EnLL	.
16A	.
16F	.
16A	.
16F	.
16B-JJ	.
=814	=814
16GLL	.
16B-	.
16G	.
16c	.
16A	.
16cJJ	.
=815	=815
!!linebreak:original
16ALL	.
16d	.
16B-	.
16d	.
16B-	.
16e-JJ	.
=816	=816
16e-LL	f
16cc	.
16cc	.
16cc	.
16cc	.
16ccJJ	.
=817	=817
!LO:TX:b:i:t=piu	!
!LO:TX:b:i:t=piu	!
16ccLL	.
16cc	.
16cc	.
16cc	f
16cc	.
16ccJJ	.
=818	=818
16gLL 16b-	.
16g 16b-	.
16g 16b-	.
16g 16b-	.
16g 16b-	.
16gJJ 16b-	.
=819	=819
16f 16a	ff
16B-LL	.
16A	.
16G	.
16F	.
16E-JJ	.
=820	=820
(4.D	p
=821	=821
4.F)	.
=822	=822
(8G-XL	<
8A	.
8cJ) 8e-	>
=823	=823
8.B- 8.d	]
16r	.
8r	.
=824	=824
4.r	.
=825	=825
!!linebreak:original
8r	.
16r	.
16F'LL	.
16B-'	pp
16d'JJ	.
=826	=826
16c'LL	.
16A'	.
16B-'JJ	.
16r	.
8r	.
=827	=827
8r	.
(8FL	p
8GJ)	.
=828	=828
16A-XLL	.
16A-J	.
8A-	.
8A-J	.
=829	=829
16A-XLL	.
16A-J	.
8A-	.
8A-J	.
=830	=830
16A-XLL	<
16A-	.
16A-	.
16A-	>
16A-	.
16A-JJ	.
=831	=831
8.A-X	]
16r	.
8r	.
=832	=832
8r	pp
16r	.
16F'LL	.
16G'	.
16E-'JJ	.
=833	=833
!!linebreak:original
16G-X'LL	.
16c'	.
16e-'JJ	.
=834	=834
8r	.
16r	.
16a-X'LL	.
16b-'	.
16B-'JJ	.
=835	=835
8e-	.
8r	.
8r	.
=836	=836
!LO:TX:a:i:t=cresc.	!
[16d#XLL 16f#X	.
16d#J] 16f#	.
8d# 8f#	.
8d#J 8f#	.
=837	=837
16e-LL 16f#X	.
16e-J 16f#	.
8e- 8f#	.
8e-J 8f#	.
=838	=838
16enLL 16f#X	.
16e 16f#	.
16e 16f#	.
16e 16f#	.
16e 16f#	.
16eJJ 16f#	.
=839	=839
8d#X 8f#X	.
8E-XL	.
8E-J	.
=840	=840
[4.E-	f
=841	=841
4.E-]	.
=842	=842
!!linebreak:original
(8DL	p
!LO:TX:a:i:t=dol.	!LO:DY:a
8E-	p
8DJ	.
=843	=843
8GL	.
8D	.
8CJ)	.
=844	=844
!LO:TX:b:i:t=cresc.	!
*^	*
(8FL	8ryy	.
8c	4F	.
8B-J	.	.
*v	*v	*
=845	=845
16.e-LL	.
32cJk	.
8B-	.
8AJ)	.
=846	=846
16e-LL	ff
16e-J	.
8e-J	.
8r	.
=847	=847
4.r	.
=848	=848
!LO:TX:a:i:t=poco rit.	!
16f#XLL	p
16f#J	.
8f#J	.
8r	.
=849	=849
4.r	.
=850	=850
!LO:TX:a:i:t=a tempo	!
(8BnL	.
8A	.
8GJ	.
=851	=851
8cL	.
8G	.
8F#XJ)	.
=852	=852
!!linebreak:original
(8EnL	.
8D#X	.
[8EJ	.
=853	=853
16.ELL]	.
32cJJk	.
8BnL	.
8AJ)	.
=854	=854
16ALL	pp
16A	.
16A	.
16A	.
16A	.
16AJJ	.
=855	=855
!LO:TX:b:i:t=sempre	!
16ALL	.
16A	.
16A	.
16A	pp
16A	.
16AJJ	.
=856	=856
16B-LL	.
16B-	.
16c	.
16c	.
16c	.
16cJJ	.
=857	=857
16cLL	.
16c	.
16c	.
16c	.
16c	.
16cJJ	.
=858	=858
16cLL	.
16c	.
16c	.
16c	.
16c	.
16cJJ	.
=859	=859
!!linebreak:original
16cLL 16e-	.
16c 16e-	.
16c 16e-	.
16c 16e-	.
16c 16e-	.
16cJJ 16e-	.
=860	=860
16B-LL 16d	.
16D	.
16D	.
16D	.
16D	.
16DJJ	.
=861	=861
16FLL	.
16F	.
16F	.
16F	.
16F	.
16FJJ	.
=862	=862
16FLL	.
16F	.
16F	.
16F	.
16F	.
16FJJ	.
=863	=863
16E-LL	.
16E-	.
16E-	.
16E-	.
16E-	.
16E-JJ	.
=864	=864
16DLL	.
16B-	.
16B-	.
16F	.
16B-	.
16dJJ	.
=865	=865
16cLL	.
16B-	.
16A	.
16G	.
16A	.
16FJJ	.
=866	=866
!!linebreak:original
16B-LL	.
16B-	.
16B-	.
16B-	.
16d	.
16fJJ	.
=867	=867
4.r	.
=868	=868
4.r	.
=869	=869
!LO:TX:a:t=pizz.	!
8F 8c	.
8r	.
8r	.
=870	=870
4.r	.
=871	=871
4.r	.
=872	=872
!LO:TX:a:t=arco	!
16FLL	.
16FJ	.
8FJ	.
8r	.
=873	=873
16FLL	ff
16F	.
16F	.
16F	.
16F	.
16FJJ	.
=874	=874
4.d 4.f	sf
=875	=875
4.F 4.B-	.
=876	=876
4F	f
8r	.
==877	==877
!!linebreak:original
*k[b-e-a-d-]	*
*f:	*
*M2/4	*
!LO:TX:a:B:t=Adagio molto e mesto	!
2r	.
=878	=878
(4F	p
!LO:TX:a:i:t=sotto voce.	!
4G	.
=879	=879
8A-L	.
8EnJ	.
8GL	.
16FJk)	.
16r	.
=880	=880
(8A-L	.
8cJ	.
8d-L	.
16cL)	.
16cJJ	.
=881	=881
(16cLL	.
16g)	.
(16f'	.
16f'JJ)	.
!LO:TX:b:i:t=cresc.	!
(8fL	.
8enJ)	.
=882	=882
4e-	p
(8e-L	]
16.a-L	>
32e-JJk)	]
=883	=883
!!linebreak:original
4e-	<
8e-L	.
16.a-L	.
32cJJk	[
=884	=884
4B-	f
8..A-L	sf
32FJkk	>
=885	=885
!LO:TX:a:i:t=morendo.	!
(8fL	]
8enJ)	.
(16eLL	.
16B-	<
16A-	.
16EnJJ)	.
=886	=886
(4F	p
!LO:TX:a:i:t=espressivo	!
[4C)	.
=887	=887
8CL]	.
8CJ	.
8.F	.
16r	.
=888	=888
(8FL	.
8A-J	.
8.GL	.
16FJk)	.
=889	=889
(16EnLL	.
16C)	.
(16F'	.
16A-'JJ)	.
!LO:TX:b:i:t=cresc.	!
4C	.
=890	=890
!!linebreak:original
!	!LO:DY:a
(8D-L	p
!	!LO:DY:a
8E-J	<
!	!LO:DY:a
8.CL	>
16E-Jk)	]
=891	=891
(8D-L	.
16E-L	.
16DnJJ	.
8CL	.
8A-J)	.
=892	=892
4G 4B-	.
(8..FL 8..A-	f
32D-Jkk)	.
=893	=893
!LO:TX:a:i:t=morendo.	!
(8D-L	.
8C	.
8FJ)	.
8r	.
=894	=894
4r	.
!LO:TX:b:i:t=cresc.	!
(8a-L	.
8gJ	.
=895	=895
8fL	.
8e-J	.
8cL)	.
8cJ	.
=896	=896
!LO:TX:b:i:t=cresc.	!
(4Bn	.
8cL)	sf
8cJ	>
=897	=897
!LO:TX:b:i:t=cresc.	!
8.BnL	]
(16bnJk	.
8ccL)	sf
8ccJ	.
=898	=898
!!linebreak:original
8g	f
8r	.
8c	.
8r	.
=899	=899
8G	.
(32dnLLL	.
32a-)	.
32g'	.
32f'JJJ	.
8e-L	.
16qqf/LL	.
16qqe-/	.
16qqd/JJ	.
(32e-LL	.
32g)	.
32f'	.
32e-'JJJ	.
=900	=900
4dn	.
4r	.
=901	=901
2r	.
=902	=902
2r	.
=903	=903
2c	p
=904	=904
[4G	.
8G_	.
32GLLL]	.
(32G	.
32dn	.
32GJJJ)	.
=905	=905
!!linebreak:original
32r	.
(32cLLL	.
32e-	.
32cJJJ	.
32gLLL	.
32c	.
32e-	.
32cJJJ)	.
4r	.
=906	=906
32r	.
(32A-LLL	.
32c	.
32A-JJJ	.
32fLLL	.
32A-	.
32c	.
32A-JJJ)	.
4r	.
=907	=907
32r	.
(32FLLL	.
32A-	.
32FJJJ	.
32d-LLL	.
32F	.
32A-	.
32FJJJ)	.
32r	.
(32GLLL	.
32c	.
32GJJJ	.
32e-LLL	.
32c	.
32g	.
32GJJJ)	.
=908	=908
4.F#X	.
(16.f#XLL	.
32ccJJk)	.
=909	=909
!!linebreak:original
32qqbn/LLL	.
32qqcc/	.
32qqdd#X/JJJ	.
(8ccL	.
16bnJk)	.
16r	.
8r	.
16r	.
16r	.
=910	=910
(16B-XLL	.
32gJJk)	.
32r	.
(16A-LL	.
32cJJk)	.
32r	.
(16A-XLL	.
32fJJk)	.
32r	.
(16GLL	.
32e-JJk)	.
32r	.
=911	=911
(32e-LLL	.
32gJJJ)	.
32r	.
32f	.
(32fLLL	.
32e-JJJ)	.
32r	.
32bn	.
!LO:TX:b:i:t=cresc.	!
(32bLLL	.
32cc)	.
(32cc	.
32b-XJJJ)	.
(32b-LLL	.
32a-)	.
(32a-	.
32cJJJ)	.
=912	=912
!!linebreak:original
(32cLLL	.
32cc)	.
(32cc	.
32fJJJ)	.
(32fLLL	.
32g)	.
(32g	.
32GJJJ)	.
(32GLLL	.
32g)	.
(32g	.
32cJJJ)	.
(32cLLL	.
32cc)	.
(32en	.
32fJJJ)	.
=913	=913
8cn' 8e-X	f
8r	f
8C' 8c	.
8r	.
=914	=914
16c	.
16r	.
(8cL	.
8dn	.
8e-J)	.
=915	=915
(8fL	.
8a-	.
8g	.
8bnJ)	.
=916	=916
16cc	.
16r	.
(8cL	.
8dn	.
8e-J)	.
=917	=917
(8fL	.
8a-	.
8g	.
8fJ)	.
=918	=918
!!linebreak:original
(32e-LLL	pp
32G	.
32c	.
32GJJJ)	.
(32cLLL	.
32G	.
32g	.
32GJJJ)	.
(32fLLL	.
32G	.
32dn	.
32GJJJ)	.
(32BnLLL	.
32G	.
32F	.
32GJJJ)	.
=919	=919
(32E-LLL	<
32G	.
32c	.
32GJJJ)	.
(32e-LLL	.
32G	.
32g	.
32GJJJ)	.
(32fLLL	[
32G	>
32dn	.
32GJJJ)	.
(32BnLLL	.
32G	.
32f	.
32GJJJ)	]
=920	=920
8e-	.
16.r	.
32bn	.
16cc	.
32r	.
32a-	.
16g	.
32r	.
32An	.
=921	=921
!!linebreak:original
8e-	.
16.r	.
32f	.
16e-	.
32r	.
32dn	.
16c	.
32r	.
32F	.
=922	=922
8E-	.
8r	.
8d-	.
8r	.
=923	=923
2r	.
=924	=924
2r	.
=925	=925
2A-	.
=926	=926
[2E-	.
=927	=927
8E-L]	.
(16A-L	.
16GJJ	.
16A-LL	.
16G-X	.
16E-	.
16CJJ)	.
=928	=928
(32D-LLL	.
32A-	.
32F	.
32A-JJJ)	.
32r	.
(32A-LLL	.
32F	.
32A-JJJ)	.
32r	.
(32A-LLL	.
32F	.
32A-JJJ	.
32FLLL	.
32A-	.
32F	.
32A-JJJ)	.
=929	=929
!!linebreak:original
32r	.
(32A-LLL	.
32E-	.
32A-JJJ)	.
32r	.
(32A-LLL	.
32E-	.
32A-JJJ)	.
32r	.
(32A-LLL	.
32E-	.
32A-JJJ	.
32E-LLL	.
32A-	.
32E-	.
32A-JJJ)	.
=930	=930
!LO:TX:a:i:t=cresc.	!
(4.C#X	.
8c#X)	.
=931	=931
2c#X	.
=932	=932
(8DnL 8dn	ff
8F#XJ 8d	.
8AnL	.
16.dL	.
32DJJk)	.
=933	=933
4.Dn 4.dn	sf
8D	]
=934	=934
!LO:TX:a:t=pizz.	!
8G	p
8r	.
8Dn	.
8r	.
=935	=935
!!linebreak:original
8B-L	.
8F#XJ	.
8GL	.
8FnJ	.
=936	=936
4E-	.
4r	.
=937	=937
4r	.
!LO:TX:a:t=arco	!
(8b-L	.
16.dd-XL	.
32gJJk	.
=938	=938
8b-L	.
8anJ)	.
4r	.
=939	=939
4r	.
16r	.
(8cL	.
16B-Jk	.
=940	=940
16A-KL	.
8G)	.
([16CJk	.
!LO:TX:a:i:t=cresc.	!
16CLL]	.
16D-)	.
(16B-	.
[16E-JJ	.
=941	=941
16E-LL]	.
16F)	.
(16c	.
[16FJJ	.
16FKL]	.
8G-X)	.
16g-XJk	.
=942	=942
!!linebreak:original
16fKL	.
8F	.
[16FJk	.
16FKL]	.
8B-	.
[16B-Jk	.
=943	=943
!	!LO:DY:a
16B-KL]	f
8g	.
16gJk	.
4c	.
=944	=944
!LO:TX:a:t=pizz.	!
32CLLL	p
32En	.
!LO:TX:a:t=arco	!
32G	.
32cJJJ	.
32CLLL	.
32F	.
32A-	.
32cJJJ	.
32CLLL	.
32F	.
32A-	.
32cJJJ	.
32CLLL	.
32G	.
32A-	.
32cJJJ	.
=945	=945
32CLLL	.
32G	.
!LO:TX:a:t=pizz.	!
32B-	.
32cJJJ	.
8r	.
8r	.
!LO:TX:a:t=arco	!
(8F	.
=946	=946
!!linebreak:original
8.C)	.
16qqC/LL	.
16qqE-/JJ	.
32.D-LLL	.
64CJJJk	.
16C	.
16qqC/LL	.
16qqE-/JJ	.
32.D-LLL	.
64CJJJk	.
16CLL	.
16qqC/LL	.
16qqE-/JJ	.
32.D-L	.
64CJJJk	.
=947	=947
!LO:TX:a:i:t=poco rit.	!
[8C	.
4.C]	.
=948	=948
!LO:TX:a:i:t=a tempo.	!
2D-	.
=949	=949
!LO:TX:a:i:t=molto cantabile.	!
(48FLLL	.
48A-	.
48F	.
48A-	.
48F	.
48A-JJJ	.
48FLLL	.
48A-	.
48F	.
48A-	.
48F	.
48A-JJJ)	.
(48FLLL	.
48A-	.
48F	.
48A-	.
48F	.
48A-JJJ	.
48FLLL	.
48A-	.
48F	.
48A-	.
48F	.
48A-JJJ)	.
=950	=950
!!linebreak:original
(48E-LLL	.
48A-	.
48E-	.
48A-	.
48E-	.
48A-JJJ	.
48E-LLL	.
48A-	.
48E-	.
48A-	.
48E-	.
48A-JJJ)	.
(48CLLL	.
48E-	.
48C	.
48E-	.
48C	.
48E-JJJ	.
48CLLL	.
48F	.
48C	.
48F	.
48C	.
48FJJJ)	.
=951	=951
(48FLLL	.
48D-	.
48F	.
48D-	.
48F	.
48D-	.
48F	.
48D-	.
48F	.
48D-	.
48F	.
48D-JJJ)	.
(48E-LLL	.
48D-	.
48E-	.
48D-	.
48E-	.
48D-	.
48E-	.
48D-	.
48E-	.
48D-	.
48E-	.
48D-JJJ)	.
=952	=952
(48FLLL	.
48D-	.
48F	.
48D-	.
48F	.
48D-	.
48F	.
48D-	.
48F	.
48D-	.
48F	.
48D-JJJ)	.
(48CLLL	.
48G-X	.
48C	.
48G-	.
48C	.
48G-	.
48C	.
48G-	.
48C	.
48G-	.
48C	.
48G-JJJ)	.
=953	=953
16F	.
(16fLL	.
16d-	.
16fJJ)	.
[4a-	.
=954	=954
16a-LL]	.
(16c	.
16A-	.
16cJJ)	.
(4e-	.
=955	=955
!!linebreak:original
16B-LL)	.
(16d-	.
16B-	.
16d-JJ	.
16fLL	.
16A-	.
16F	.
16A-JJ)	.
=956	=956
(4c	.
!LO:TX:b:i:t=cresc.	!
8A-L	.
8FJ)	.
=957	=957
(8.CL	p
!LO:TX:b:i:t=cresc.	!
16FJk	.
8CL	.
8GJ)	sf
=958	=958
!LO:TX:b:i:t=cresc.	!
(8.CL	p
16FJk	.
8CL	.
!	!LO:DY:a
8GJ)	sf
=959	=959
!LO:TX:b:i:t=dim.	!
16C	p
32qqE-/	.
32.D-'LLL	.
64C'JJJk	.
16C	.
16qqE-/	.
32.D-'LLL	.
64C'JJJk	.
16C	.
32qqE-/	.
32.D-'LLL	.
64C'JJJk	.
16C	.
16qqE-/	.
32.D-'LLL	.
64C'JJJk	.
=960	=960
!!linebreak:original
!LO:TX:a:i:t=sempre stacc.	!
32CLLL	pp
32C	.
32C	.
32CJJJ	.
32CLLL	.
32C	.
32C	.
32CJJJ	.
4C	.
=961	=961
2C	.
=962	=962
!LO:TX:b:i:t=cresc.	!
2C	.
=963	=963
2C	.
=964	=964
2C	.
=965	=965
!LO:TX:a:i:t=cresc.	!
2E-X	.
=966	=966
4E-X	]
!LO:TX:b:i:t=cresc.	!
32E-LLL	.
32E-	.
32E-	.
32E-JJJ	.
32CLLL	.
32C	.
32C	.
32CJJJ	.
=967	=967
4C	f
4C	f
=968	=968
!!linebreak:original
32CLLL	]
!LO:TX:a:i:t=morendo.	!
32C	.
32C	.
32C	.
32C	.
32C	.
32C	.
32CJJJ	.
8F	p
8r	.
=969	=969
(4g-X	.
!LO:TX:b:i:t=cresc.	!
8a-L	.
8gnJ)	.
=970	=970
4f	.
4G 4f	.
=971	=971
8G 8en	f
8r	.
8G 8f	.
8r	.
=972	=972
8GL 8en	.
16qqddn/LL	.
16qqcc/	.
16qqbn/JJ	.
(32ccLL	.
32een)	.
32dd'	.
32cc'JJJ	.
8bL	.
16qqcc/LL	.
16qqb/	.
16qqan/JJ	.
(32bLL	.
32a)	.
32g'	.
32f'JJJ	.
=973	=973
8en	.
8r	.
4r	.
=974	=974
2r	.
=975	=975
2r	.
=976	=976
!!linebreak:original
2f	p
=977	=977
[4c	.
8cL_	.
(32cLL]	.
32c	.
32g	.
32cJJJ)	.
=978	=978
32r	.
(32fLLL	.
32a-	.
32fJJJ	.
32ccLLL	.
32f	.
32a-	.
32fJJJ)	.
4r	.
=979	=979
32r	.
(32d-LLL	.
32f	.
32d-JJJ	.
32b-LLL	.
32d-	.
32f	.
32d-JJJ)	.
4r	.
=980	=980
32r	.
(32B-LLL	.
32d-	.
32B-JJJ	.
32g-XLLL	.
32B-	.
32d-	.
32B-JJJ)	.
32r	.
(32FLLL	.
32A-	.
32FJJJ	.
32cLLL	.
32A-	.
32f	.
32cJJJ)	.
=981	=981
!!linebreak:original
8Bn	.
4.B 4.dn	.
=982	=982
8r	.
(4B-X	.
8g)	.
=983	=983
(16ccLL	.
32eenJJk)	.
32r	.
(16b-LL	.
32ddnJJk)	.
32r	.
(16d-LL	.
32b-JJk)	.
32r	.
(16cLL	.
32a-JJk)	.
32r	.
=984	=984
(32a-LLL	.
32b-JJJ)	.
32r	.
32b-	.
(32b-LLL	.
32a-JJJ)	.
32r	.
32b-	.
!LO:TX:b:i:t=cresc.	!
(32b-LLL	.
32a-)	.
(32a-	.
32cc-XJJJ)	.
(32cc-LLL	.
32f)	.
(32dd-	.
32anJJJ)	.
=985	=985
!!linebreak:original
(32anLLL	.
32b-)	.
(32b-	.
32gJJJ)	.
(32gLLL	.
32a-X)	.
(32a-	.
32cJJJ)	.
32cLLL	.
32c	.
(32c	.
32fJJJ)	.
(32fLLL	.
32a-)	.
(32a-	.
32fJJJ)	.
=986	=986
8f'	.
8r	sf
8F'	.
8r	f
=987	=987
16F	p
16r	.
(8fL	.
8g	.
8a-J)	.
=988	=988
(8b-L	.
8dd-J	.
8ccL	.
8b-J	.
=989	=989
16a-)	.
16r	.
(8FL	.
8G	.
8A-J)	.
=990	=990
(8B-L	.
8d-	.
8c	.
8B-J)	.
=991	=991
!!linebreak:original
(48A-LLL	.
48C	.
48A-	.
48C	.
48A-	.
48CJJJ	.
48A-LLL	.
48C	.
48A-	.
48C	.
48A-	.
48CJJJ)	.
(48B-LLL	.
48C	.
48B-	.
48C	.
48B-	.
48CJJJ	.
48B-LLL	.
48C	.
48B-	.
48C	.
48B-	.
48CJJJ)	.
=992	=992
(48cLLL	.
48C	.
48c	.
48C	.
48c	.
48CJJJ	.
48cLLL	.
48C	.
48c	.
48C	.
48c	.
48CJJJ)	.
(48GLLL	.
48C	.
48G	.
48C	.
48G	.
48CJJJ	.
48FLLL	.
48C	.
48F	.
48C	.
48F	.
48CJJJ)	.
=993	=993
(48FLLL	.
48C	.
48F	.
48C	.
48F	.
48CJJJ)	.
(48A-LLL	.
48C	.
48A-	.
48C	.
48A-	.
48CJJJ)	.
(48B-LLL	.
48C	.
48B-	.
48C	.
48B-	.
48CJJJ)	.
(48B-LLL	.
48C	.
48B-	.
48A-	.
48C	.
48A-JJJ)	.
=994	=994
!!linebreak:original
(48GLLL	.
48C	.
48G	.
48En	.
48G	.
48EJJJ)	.
(48A-LLL	.
48F	.
48A-	.
48F	.
48A-	.
48FJJJ)	.
(48A-LLL	.
48F	.
48A-	.
48F	.
48A-	.
48FJJJ)	.
(48ELLL	.
48G	.
48E	.
48G	.
48E	.
48GJJJ)	.
=995	=995
(48E-LLL	<
48G	.
48E-	.
48G	.
48E-	.
48GJJJ	.
48E-LLL	.
48G	.
48E-	.
48G	.
48E-	.
48GJJJ)	.
(48E-LLL	>
48A-	.
48E-	.
48A-	.
48E-	.
48A-JJJ	.
48E-LLL	.
48A-	.
48E-	.
48A-	.
48E-	.
48A-JJJ)	.
=996	=996
(48E-LLL	]
48G	.
48E-	.
48G	.
48E-	.
!LO:TX:b:i:t=cresc.	!
48GJJJ	.
48E-LLL	.
48G	.
48E-	.
48G	.
48E-	.
48GJJJ)	.
(48E-LLL	.
48A-	.
48E-	.
48A-	.
48E-	.
48A-JJJ	.
48E-LLL	.
48A-	.
48E-	.
48c	.
48A-	.
48cJJJ)	.
=997	=997
!!linebreak:original
(48B-LLL	f
48c	.
48B-	.
48c	.
48B-	.
48cJJJ	.
48B-LLL	.
48c	.
48B-	.
48c	.
48B-	.
48cJJJ)	sf
(48A-LLL	.
48c	>
48A-	.
48c	.
48A-	.
48cJJJ	.
48FLLL	.
48c	.
48F	.
48c	.
48F	.
48cJJJ)	]
=998	=998
(48FLLL	p
48B-	.
48F	.
48B-	.
48F	.
!LO:TX:b:i:t=dim.	!
48B-JJJ)	.
(48E-LLL	.
48An	.
48E-	.
48A	.
48E-	.
48AJJJ)	.
8.FL	.
16FJk	.
=999	=999
(8GL	.
8A-X	.
8.B-)	.
16B-Jk	.
=1000	=1000
8cL	.
(8cJ	pp
8d-L	.
8dnJ)	.
=1001	=1001
!LO:TX:b:i:t=cresc.	!
8enL	.
(16.eL	.
32fJJk)	.
8fL	.
8fJ	sf
=1002	=1002
!!linebreak:original
!LO:TX:b:i:t=cresc.	!
(8enL	]
16.gL)	.
32gJJk	.
(8gL	sf
[8fJ)	.
=1003	=1003
2f]	>
=1004	=1004
4bn	p
[4Bn [4dn	.
=1005	=1005
2B] 2d]	.
=1006	=1006
8c	.
8r	.
8r	.
64r	.
64c'LLLL	.
64Bn'	.
64An'	.
64G'	.
64F'	.
64En'	.
64Dn'JJJJ	.
=1007	=1007
16C	.
8.r	.
4r	.
=1008	=1008
2r	.
=1009	=1009
8En 8G	.
8r	.
4r	.
=1010!|:	=1010!|:
!!linebreak:original
*k[b-]	*
*F:	*
!LO:TX:a:B:t=Allegro	!
2r	.
=1011	=1011
2r	.
=1012	=1012
2r	.
=1013	=1013
2r	.
=1014	=1014
2r	.
=1015	=1015
2r	.
=1016	=1016
2r	.
=1017	=1017
16r	.
16f'LL	.
16e'	.
16a'JJ	.
8f'	.
8r	.
=1018	=1018
8g'L	.
8g'J	.
8r	.
8g'	.
=1019	=1019
8r	.
8f	.
8r	.
8c	.
=1020	=1020
8r	.
8A	.
8r	.
8e	.
=1021	=1021
8r	.
8f	.
8r	.
8e	.
=1022	=1022
8r	.
8f	.
!LO:TX:b:i:t=sempre	!
8r	.
8e	p
=1023	=1023
8r	.
8f	.
8r	.
8g	.
=1024	=1024
!!linebreak:original
8r	.
8f	.
8r	.
8g	.
=1025	=1025
!LO:TX:a:i:t=cresc.	!
!LO:TX:b:i:t=cresc.	!
!LO:TX:b:i:t=cresc.	!
(4D	.
8CL	.
16DL	.
16EJJ)	.
=1026	=1026
8F'L	.
8F'J	.
!LO:TX:b:i:t=cresc.	!
8G'L	.
8G'J	.
=1027	=1027
(4A	f
8cL)	.
16c'L	.
16B-'JJ	.
=1028	=1028
(4A	.
8EL)	.
16E'L	.
16G'JJ	.
=1029	=1029
4F	.
(8.cL	.
16B-Jk)	.
=1030	=1030
4A	.
!	!LO:DY:a
(8.EL	sf
16GJk)	.
=1031	=1031
16GLL	ff
16FJJ	ff
4A	.
[8c	.
=1032	=1032
(8cL]	.
8dJ)	.
4r	.
=1033	=1033
!!linebreak:original
8r	.
4B-	.
[8d	.
=1034	=1034
(8dL]	.
16eL)	p
16f'JJ	.
(16f#XLL	.
16g)	.
16g'	.
16fn'JJ	.
=1035	=1035
(16fLL	.
16e)	.
16e'	.
16d'JJ	.
(16dLL	p
16c)	.
16c'	.
16Bn'JJ	.
=1036	=1036
(16cLL	.
16B-X)	.
(16B-	.
16fJJ	.
16gLL	.
16B-	.
16A	.
16fJJ)	.
=1037	=1037
(16cLL	.
16B-X)	.
(16B-	.
16fJJ	.
16gLL	.
16B-	.
16A	.
16fJJ)	.
=1038	=1038
(16GLL	.
16dJJ)	.
16r	.
16d	.
(16ELL	.
16cJJ)	.
16r	.
16c	.
=1039	=1039
!!linebreak:original
8r	.
(8fL	<
8b-	[
8aJ)	>
=1040	=1040
8r	]
(8FL	.
8E	.
8AJ)	.
=1041	=1041
8r	.
!LO:TX:b:i:t=cresc.	!
!LO:TX:b:i:t=cresc.	!
!LO:TX:b:i:t=cresc.	!
!LO:TX:b:i:t=cresc.	!
8g	.
8r	.
8e	.
=1042	=1042
8r	.
8f	.
8r	.
8A	.
=1043	=1043
8r	.
8B-	.
8r	.
8G	.
=1044	=1044
8AL	ff
8AJ	.
8B-L	.
8B-J	.
=1045	=1045
8AL	.
8AJ	.
8B-L	.
8B-J	.
=1046	=1046
8cL	.
8cJ	.
8cL	.
8cJ	.
=1047	=1047
!!linebreak:original
8cL	.
8cJ	.
8eL	.
8eJ	.
=1048	=1048
8fL	.
8fJ	.
8gL	.
8gJ	.
=1049	=1049
8fL	.
8fJ	.
(8EL	.
16F#XL	.
16G#XJJ)	.
=1050	=1050
8AL	.
8AJ	.
(8g#XL	.
16aL	.
16bnJJ)	.
=1051	=1051
8cc'L	.
8cc'J	.
(8DL	.
16EL	.
16FnJJ)	.
=1052	=1052
[4G	sf
(8GL]	sf
16BnL	.
16dJJ)	.
=1053	=1053
4g	sf
4r	.
=1054	=1054
8r	p
!LO:TX:b:i:t=dol.	!
8e	p
8r	.
8f	.
=1055	=1055
!!linebreak:original
8r	.
8g	.
8r	.
8g	.
=1056	=1056
8r	.
8bn	.
8r	.
8dd-X	.
=1057	=1057
8r	.
8dd	.
8r	.
8dd	.
=1058	=1058
8r	.
8dd	<
8r	.
8ee	.
=1059	=1059
8r	.
8ff	.
8r	.
8d	.
=1060	=1060
8r	[
8e	>
8r	.
8f	.
=1061	=1061
8r	.
8g	.
8r	]
8bn	.
=1062	=1062
8cc	.
4G	.
[8G	.
=1063	=1063
!!linebreak:original
8G]	.
4G	.
[8G	.
=1064	=1064
8G]	.
4G	.
[8G	.
=1065	=1065
8G]	.
4G	.
[8G	.
=1066	=1066
8G]	.
4G	<
[8G	.
=1067	=1067
8G]	.
4G	.
[8G	.
=1068	=1068
8G]	.
4G	.
[8G	[
=1069	=1069
!LO:TX:b:i:t=dim.	!
8G]	.
4G	.
[8G	.
=1070	=1070
8G]	.
4G	.
(8G	.
=1071	=1071
[2A-X)	pp
=1072	=1072
4A-]	.
(8BnL	.
16cL	.
16dJJ)	.
=1073	=1073
!!linebreak:original
8e-X'L	.
8e-'J	.
8d'L	.
8d'J	.
=1074	=1074
2c	ff
=1075	=1075
!	!LO:DY:a
16F'LL	sf
16G'	sf
16A'	.
16Bn'JJ	.
16c'LL	.
16d'	.
16e'	.
16f'JJ	.
=1076	=1076
2F 2G	.
=1077	=1077
16eLL	.
16d	.
16c	.
16BnJJ	.
16ALL	.
16G	.
16F	.
16EJJ	.
=1078	=1078
8c	.
8r	.
8c 8a	.
8r	.
=1079	=1079
8c 8g	.
8r	.
8G	.
8r	.
=1080	=1080
2r	.
=1081	=1081
!LO:TX:a:i:t=poco rit.	!
4r	pp
!	!LO:DY:a
(8AL	pp
16GL	.
16F#XJJ)	.
=1082	=1082
!!linebreak:original
!LO:TX:a:i:t=a tempo.	!
8.GL	.
!LO:TX:b:i:t=cresc.	!
16c'Jk	.
8.cL	.
16e'Jk	.
=1083	=1083
8.eL	.
16gJk	.
(16gLL	.
16e)	.
16c'	.
16G'JJ	.
=1084	=1084
8.FL	.
16Bn'Jk	.
8.BL	.
16d'Jk	.
=1085	=1085
8.dL	.
16fJk	.
16fLL	.
16d	.
16Bn	.
16FJJ	.
=1086	=1086
16GLL	f
16eJ	.
[8eJ	.
16eLL]	.
16eJ	.
[8eJ	.
=1087	=1087
16eLL]	.
16eJ	.
[8eJ	.
16eLL]	.
16e	.
16e	.
16eJJ	.
=1088	=1088
16fLL	.
16dJ	.
[8dJ	.
16dLL]	.
16dJ	.
[8dJ	.
=1089	=1089
!!linebreak:original
16dLL]	.
16dJ	.
[8dJ	.
16dLL]	.
16d	.
16d	.
16dJJ	.
=1090	=1090
16eLL	p
16eJ	.
[8fJ	.
16fLL]	.
16eJ	.
[8gJ	.
=1091	=1091
16gLL]	.
16fJ	.
[8gJ	.
16gLL]	.
16fJ	.
8fJ	.
=1092	=1092
!LO:TX:b:i:t=cresc.	!
16eLL	.
16EJJ	.
[8F	.
16FLL]	.
16EJ	.
[8GJ	.
=1093	=1093
16GLL]	.
16FJ	.
[8GJ	.
16GLL]	.
16FJ	.
[8fJ	.
=1094	=1094
16fLL]	.
16eJ	.
[8dJ	.
16dLL]	.
16cJ	.
[8BnJ	.
=1095	=1095
16BLL]	.
16AJ	.
[8FJ	.
16FLL]	.
16GJ	.
[8GJ	.
=1096	=1096
!!linebreak:original
16GKL]	f
8e	f
[16dJk	f
16dKL]	.
8c	.
[16BnJk	.
=1097	=1097
16BKL]	.
8A	.
[16FJk	.
16FKL]	.
8G	.
16GJk	.
=1098	=1098
!	!LO:DY:a
16C 16c	ff
(16CLL	ff
16D)	.
(16EJJ	.
16FLL)	.
(16G	.
16A)	.
(16BnJJ	.
=1099	=1099
16cLL)	.
(16d	.
16e)	.
(16fJJ	.
16gLL)	.
(16A	.
16Bn)	.
(16cJJ	.
=1100	=1100
16dLL)	.
(16e	.
16f)	.
(16g'JJ	.
8a'L)	.
8G'J 8f	.
=1101	=1101
16GLL 16e	.
(16E	.
16D)	.
(16FJJ	.
16ELL)	.
(16E	.
16D)	.
(16FJJ	.
=1102	=1102
!!linebreak:original
16ELL)	.
(16G	.
16F)	.
(16A-XJJ	.
16GLL)	.
(16c	.
16Bn)	.
(16dJJ	.
=1103	=1103
16cLL)	.
(16e	.
16d)	.
(16fJJ	.
16eLL)	.
(16e	.
16d)	.
(16fJJ	.
=1104	=1104
16eLL)	.
(16g	.
16f)	.
(16a-XJJ	.
16gLL)	.
(16g	.
16f)	.
(16a-JJ	.
=1105	=1105
16gLL)	p
(16d	.
!LO:TX:b:i:t=dim.	!
16f	.
16dJJ	.
16eLL	.
16d	.
16f	.
16dJJ	.
=1106	=1106
16eLL	.
16d	.
16f	.
16dJJ	.
16eLL	.
16d	.
16f	.
16dJJ)	.
=1107	=1107
8e	.
8r	pp
4r	.
=1108	=1108
2r	.
=1109:|!	=1109:|!
!!linebreak:original
(4F#X	p
8EL	.
16F#L	.
16GJJ)	.
=1110	=1110
8A'L	.
8A'J	.
8G'L	.
8G'J	p
=1111	=1111
!LO:TX:b:i:t=cresc.	!
8F#XL	.
8F#J	.
(8GL	.
16AL	.
16B-JJ)	.
=1112	=1112
8cL	.
8cJ	.
8B-L	.
8B-J	.
=1113	=1113
8AL	.
8AJ	.
8B-L	.
16cL	.
16dJJ	.
=1114	=1114
8e-XL	f
8dJ	>
(8cL	.
16B-L	.
16AJJ)	]
=1115	=1115
8G	p
4D	.
[8D	.
=1116	=1116
8D]	.
4d	.
[8d	p
=1117	=1117
!!linebreak:original
8d]	.
4D	.
[8D	.
=1118	=1118
8D]	.
4d	.
[8d	.
=1119	=1119
8dL]	.
16G'L	.
16A'JJ	.
(16ALL	.
16B-)	.
16B-'	.
16c'JJ	.
=1120	=1120
!LO:TX:b:i:t=dim.	!
!LO:TX:b:i:t=dim.	!
!LO:TX:a:i:t=dim.	!
(16cLL	.
16B-)	.
16B-'	.
16Bn'JJ	.
(16BLL	.
16c)	.
16c'	.
16d'JJ	.
=1121	=1121
(16dLL	pp
16e-X)	.
16e-'	.
16f'JJ	.
(16fLL	.
16e-JJ)	.
8r	pp
=1122	=1122
2r	.
=1123	=1123
[2E-X	.
=1124	=1124
2E-_	.
=1125	=1125
2E-_	.
=1126	=1126
2E-_	p
=1127	=1127
!!linebreak:original
8E-]	]
4e-X	.
16E-X'LL	.
16D-X'JJ	.
=1128	=1128
(16D-XLL	.
16C)	.
16A'	.
16B-'JJ	.
(16ALL	.
16B-JJ)	.
[8F	.
=1129	=1129
8F]	.
4f	.
16F'LL	.
16E-X'JJ	.
=1130	=1130
(16E-XLL	.
16D)	.
16Bn'	.
16c'JJ	.
(16BLL	.
16cJ)	.
[8GJ	.
=1131	=1131
8G]	.
4g	.
16e'LL	.
16f'JJ	.
=1132	=1132
8g	f
16c#X'LL	.
16a'JJ	.
(16aLL	.
16a)	.
16a'	.
16g'JJ	.
=1133	=1133
!!linebreak:original
(16gLL	.
16f)	.
16f'	.
16e-X'JJ	.
(16e-LL	.
16d)	.
16d'	.
16d'JJ	.
=1134	=1134
8dL	.
16d'L	.
16c#X'JJ	.
(16c#LL	.
16d)	.
16d'	.
16c#'JJ	.
=1135	=1135
(16c#XLL	.
16d)	.
16d'	.
16c#'JJ	.
(16c#LL	.
16d)	.
16d'	.
16c#'JJ	.
=1136	=1136
(16DLL	sf
16E)	.
16E'	.
16D'JJ	.
(16DLL	sf
16E)	.
16E'	.
16D'JJ	.
=1137	=1137
(16DLL	sf
16E)	.
16E'	.
16D'JJ	.
(16DLL	sf
16E)	.
16E'	.
16D'JJ	.
=1138	=1138
[2E	ff
=1139	=1139
!	!LO:DY:a
2E_	>
=1140	=1140
(4E]	p
8A'L)	.
16A'L	.
16G'JJ	.
=1141	=1141
!!linebreak:original
(4F	.
8C#X'L)	.
16C#'L	.
16E'JJ	.
=1142	=1142
!	!LO:DY:a
(8.DL	<
16FJk	.
!	!LO:DY:a
8.AL	>
16GJk)	.
=1143	=1143
!	!LO:DY:a
(8.FL	<
16DJk	.
!	!LO:DY:a
8.C#XL	>
16EJk)	.
=1144	=1144
(4D	]
8B-L)	.
16B-'L	.
16A-X'JJ	.
=1145	=1145
(4G	.
8DL)	.
16D'L	.
16F'JJ	.
=1146	=1146
(8.E-XL	.
!	!LO:DY:a
16GJk	<
8.B-L	[
16A-XJk)	[
=1147	=1147
!	!LO:DY:a
(8.GL	<
16E-XJk	.
!	!LO:DY:a
8.DL	>
16FJk)	.
=1148	=1148
8.EL	]
16EJk	.
(8.EL	.
16GJk)	.
=1149	=1149
!!linebreak:original
(8.GL	.
16cJk)	.
(16cLL	.
16e)	.
(16e	.
16gJJ)	.
=1150	=1150
16g'LL	f
16g'J	.
[8gJ	.
16gLL]	.
16gJ	.
[8gJ	.
=1151	=1151
16gLL]	.
16c#XJ	.
[8c#J	.
16c#LL]	.
16c#	.
16c#	.
16c#JJ	.
=1152	=1152
16fLL	.
16fJ	.
[8fJ	.
16fLL]	.
16fJ	.
[8fJ	.
=1153	=1153
16fLL]	.
16fJ	.
[8fJ	.
16fLL]	.
16f	.
16f	.
16fJJ	.
=1154	=1154
16gLL	.
16B-J	.
[8B-J	.
16B-LL]	.
16B-J	.
[8B-J	.
=1155	=1155
16B-LL]	.
16GJ	.
[8GJ	.
16GLL]	.
16G	.
16G	.
16GJJ	.
=1156	=1156
!!linebreak:original
8.GL	.
16c#XJk	.
8.c#L	.
16eJk	.
=1157	=1157
8.eL	.
16gJk	.
(16gLL	.
16e)	.
16c#X'	.
16G'JJ	.
=1158	=1158
8.FL	.
16A'Jk	.
8.AL	.
16d'Jk	.
=1159	=1159
8.dL	.
16f'Jk	.
8.fL	.
16a'Jk	.
=1160	=1160
8.b-L	.
16eJk	.
8.eL	.
16gJk	.
=1161	=1161
8.gL	.
16c#XJk	.
8.c#L	.
16eJk	.
=1162	=1162
8.fL	.
16aJk	.
8.dL	.
16fJk	.
=1163	=1163
8.B-L	.
16e-XJk	.
8.dL	.
16c#XJk	.
=1164	=1164
!!linebreak:original
16f'KL	.
8.aJ	sf
16dKL	sf
8.fJ	.
=1165	=1165
16B-KL	.
8.e-XJ	.
16dKL	.
8.c#XJ	.
=1166	=1166
16ddLL	ff
(16a	ff
16b-)	.
(16gJJ	.
16aLL)	.
(16f	.
16g)	.
(16eJJ	.
=1167	=1167
16fLL)	.
(16d	.
16e)	.
(16c#XJJ	.
16dLL)	.
(16D	.
16C#X)	.
(16EJJ	.
=1168	=1168
16DLL)	.
(16F	.
16E)	.
(16GJJ	.
16FLL)	.
(16F	.
16E)	.
(16GJJ	.
=1169	=1169
16FLL)	.
(16A	.
16G)	.
(16B-JJ	.
16ALL)	.
(16G	.
16B-)	.
(16GJJ	.
=1170	=1170
!!linebreak:original
!LO:TX:b:i:t=dim.	!
16ALL)	.
(16G	.
16E	.
16GJJ	.
16FLL	.
16G	.
16E	.
16GJJ	.
=1171	=1171
16FLL	.
16G	.
16E	.
16GJJ	.
16FLL	.
16G	.
16E	.
16GJJ)	.
=1172	=1172
[2F	p
=1173	=1173
!LO:TX:b:i:t=dim.	!
2F]	.
=1174	=1174
16d'LL	pp
16A'J	.
[8AJ	.
16ALL]	.
16A'J	.
[8AJ	.
=1175	=1175
16ALL]	.
16AJ	.
[8AJ	.
16ALL]	.
16A'J	.
[8AJ	.
=1176	=1176
8AL]	.
(16BnL	.
16c#XJJ)	.
8dL	.
(8dTJ	.
=1177	=1177
*^	*
.	512.ryy	.
.	64ryy	.
.	4ryy	.
8eL)	8ryy	]
(8etJ	4096%179eyy	.
.	32fLLLyy	.
.	32eJJJyy	.
.	4096ryy	.
*v	*v	*
4f)	]
=1178	=1178
16cLL	pp
16G'J	.
[8GJ	.
16GLL]	.
16G'J	.
[8GJ	.
=1179	=1179
!!linebreak:original
16GLL]	.
16G'J	.
[8GJ	.
16GLL]	.
16G'J	.
[8GJ	.
=1180	=1180
8GL]	.
(16AL	.
16BnJJ	.
8cL)	.
(8cTJ	.
=1181	=1181
*^	*
.	512.ryy	.
.	64ryy	.
.	4ryy	.
8dL)	8ryy	]
(8dTJ	4096%179dyy	.
.	32eLLLyy	.
.	32dJJJyy	.
.	4096ryy	.
*v	*v	*
4e-X)	<
=1182	=1182
8.B-L	pp
16cJk	.
8.B-L	.
16AJk	.
=1183	=1183
8.B-L	.
16cJk	.
8.B-L	.
16AJk	.
=1184	=1184
8.B-L	<
16AJk	.
8.B-L	.
16AJk	.
=1185	=1185
8.B-L	>
16AJk	.
8.B-L	.
16AJk	.
=1186	=1186
(4B-	]
!LO:TX:b:i:t=dim.	!
8AL	p
16B-L	.
16cJJ)	.
=1187	=1187
!!linebreak:original
(4d	.
8e-XL	.
16dL	.
16cJJ)	.
=1188	=1188
(4B-	pp
8G-XL	.
16FL	.
16E-XJJ)	.
=1189	=1189
8D'L	.
8d'J	.
8c'L	.
8c'J	.
=1190	=1190
!LO:TX:b:i:t=sempre	!
8cL	.
8cJ	.
8cL	.
8cJ	p
=1191	=1191
8cL	.
8cJ	.
8cL	.
8cJ	.
=1192	=1192
8cL	.
8aJ	.
8aL	.
8aJ	.
=1193	=1193
8a	.
8fL	.
8e	.
8eJ	.
=1194	=1194
8fL	.
8aJ	.
8b-L	.
8gJ	.
=1195	=1195
2r	.
=1196	=1196
!!linebreak:original
!LO:TX:b:i:t=cresc.	!
!LO:TX:b:i:t=cresc.	!
(4d	f
8cL	.
16dL	.
16eJJ)	.
=1197	=1197
8fL	.
8fJ	.
8gL	.
8gJ	.
=1198	=1198
(4a	.
8ccL)	.
16ccL	.
16b-JJ	.
=1199	=1199
4a	ff
8gL	ff
8gJ	.
=1200	=1200
8.aL	.
(16aJk	.
8.ccL	sf
16b-Jk)	.
=1201	=1201
8.aL	.
16aJk	.
8.gL	sf
16gJk	.
=1202	=1202
8a	.
4f	.
[8F	.
=1203	=1203
4F]	.
8r	.
16b-'LL	.
16a'JJ	.
=1204	=1204
!!linebreak:original
(16aLL	.
16g)	.
16g'	.
16f'JJ	.
(16fLL	.
16e)	.
16e'	.
16d'JJ	.
=1205	=1205
(16dLL	.
16c)	.
!	!LO:DY:a
16e'	p
16f'JJ	.
(16f#XLL	.
16g)	.
16g'	.
16fn'JJ	.
=1206	=1206
(16fLL	.
16e)	p
16e'	.
16d'JJ	.
(16dLL	.
16c)	.
16c'	.
16Bn'JJ	.
=1207	=1207
(16cLL	.
16B-X)	.
(16B-	.
16fJJ	.
16gLL	.
16B-	.
16A	.
16fJJ)	.
=1208	=1208
2r	.
=1209	=1209
(16GLL	p
16dJJ)	p
16r	.
16d	p
(16ELL	p
16cJJ)	.
16r	.
16c	.
=1210	=1210
2r	.
=1211	=1211
!!linebreak:original
16d-XLL	<
16c	.
16B-	.
16fJJ	.
16gLL	>
16B-	.
16A-X	.
16fJJ	.
=1212	=1212
(16GLL	p
16d-XJJ)	.
16r	.
!LO:TX:b:i:t=cresc.	!
16d-	.
(16ELL	.
16cJJ)	.
16r	.
16c	.
=1213	=1213
8r	.
8A-X	.
8r	.
8f	.
=1214	=1214
8r	.
8f	.
8r	.
8B-	.
=1215	=1215
8A-X'L	ff
8A-'J	.
8B-'L	.
8B-'J	.
=1216	=1216
8A-X'L	.
8A-'J	.
8B-'L	.
8B-'J	.
=1217	=1217
8cL	.
8cJ	.
8cL	.
8cJ	.
=1218	=1218
!!linebreak:original
8cL	.
8cJ	.
8eL	.
8eJ	.
=1219	=1219
8fL	sf
8fJ	.
8gL	.
8gJ	.
=1220	=1220
8fL	.
8fJ	.
(8E-XL	.
16FL	.
16GJJ)	.
=1221	=1221
8A-X'L	.
8A-'J	.
(8GL	.
16A-L	.
16B-JJ)	.
=1222	=1222
8cL	.
8cJ	.
(8DL	.
16EL	.
16F#XJJ)	.
=1223	=1223
[4G	.
(8GL]	.
16BnL	.
16dJJ)	.
=1224	=1224
4g	sf
4r	.
=1225	=1225
!	!LO:DY:a
[4C	sf
(8CL]	.
16EL	.
16GJJ)	.
=1226	=1226
4c	.
4r	.
=1227	=1227
!!linebreak:original
8r	.
8F	p
8r	.
8G	.
=1228	=1228
8r	.
8A	.
8r	.
8A	.
=1229	=1229
8r	.
8B-	.
8r	.
8A	.
=1230	=1230
8r	.
8G	.
8r	.
8Fn	.
=1231	=1231
8r	.
8E	.
8r	<
8D	.
=1232	=1232
8r	.
8C	.
8r	.
8B-	.
=1233	=1233
8r	[
8A	>
8r	.
8G	.
=1234	=1234
8r	.
8F	.
8r	.
8C	.
=1235	=1235
8C 8c	]
4C 4c	.
[8C [8c	.
=1236	=1236
8C] 8c]	.
4C 4c	.
[8C [8c	.
=1237	=1237
!!linebreak:original
8C] 8c]	.
4C 4c	.
[8C [8c	.
=1238	=1238
8C] 8c]	.
4C 4c	.
[8C [8c	.
=1239	=1239
8C] 8c]	.
4C 4c	.
[8C [8c	.
=1240	=1240
8C] 8c]	.
4C 4c	.
[8C [8c	.
=1241	=1241
8C] 8c]	.
4C 4c	.
[8C [8c	.
=1242	=1242
8C] 8c]	.
4C	.
8G-X	.
=1243	=1243
[2F	.
=1244	=1244
4F]	pp
(8EL	.
16FL	.
16GJJ)	.
=1245	=1245
8A-X'L	.
8A-'J	.
8G'L	.
8G'J	.
=1246	=1246
!	!LO:DY:a
2F	ff
=1247	=1247
2F	ff
=1248	=1248
!!linebreak:original
16C'LL	.
16D'	.
16E'	.
16F'JJ	.
16G'LL	.
16A'	.
16B-'	.
16c'JJ	.
=1249	=1249
16aLL	.
16g	.
16f	.
16eJJ	.
16dLL	.
!	!LO:DY:a
16c	<
16B-	.
16AJJ	.
=1250	=1250
8f	.
8r	.
8B-	.
8r	.
=1251	=1251
8c	.
8r	[
!	!LO:DY:a
8C 8c	>
8r	.
=1252	=1252
2r	pp
=1253	=1253
!LO:TX:a:i:t=poco rit.	!
4r	]
(8FL	pp
16EL	.
16DJJ)	.
=1254	=1254
!LO:TX:a:i:t=a tempo.	!
8.CL	.
!LO:TX:b:i:t=cresc.	!
16c'Jk	.
8.cL	.
16f'Jk	.
=1255	=1255
8.fL	.
16a'Jk	.
(16aLL	.
16f)	.
16c'	.
16A'JJ	.
=1256	=1256
!!linebreak:original
8.B-L	.
16eJk	.
8.eL	.
16gJk	.
=1257	=1257
8.gL	.
16b-Jk	.
(16b-LL	.
16g)	.
16e'	.
16B-'JJ	.
=1258	=1258
!	!LO:DY:a
16c'LL	f
16a'J	.
[8aJ	.
16aLL]	.
16aJ	.
[8aJ	.
=1259	=1259
16aLL]	.
16a'J	.
[8aJ	.
16aLL]	.
16a'	.
16a	.
16aJJ	.
=1260	=1260
16b-LL	.
16gJ	.
8.gJ	.
16gKL	.
[8gJ	.
=1261	=1261
16gLL]	.
16gJ	.
[8gJ	.
16gLL]	.
16g	.
16g	.
16gJJ	.
=1262	=1262
16a'LL	p
16a'J	.
[8gJ	.
16gLL]	.
16aJ	.
[8ccJ	.
=1263	=1263
16ccLL]	.
16b-J	.
[8ccJ	.
16ccLL]	.
16b-J	.
8b-J	.
=1264	=1264
!!linebreak:original
16aLL	.
16AJ	.
!LO:TX:a:i:t=cresc.	!
[8B-J	.
16B-LL]	.
16AJ	.
[8cJ	.
=1265	=1265
16cLL]	.
16B-J	.
[8cJ	.
16cLL]	.
16B-J	.
[8B-J	.
=1266	=1266
16B-LL]	.
16AJ	.
[8GJ	.
16GLL]	.
16FJ	.
[8EJ	.
=1267	=1267
16ELL]	.
16DJ	.
[8B-J	.
16B-LL]	.
16AJ	.
[8GJ	.
=1268	=1268
16GKL]	.
8A	f
8G	.
8F	.
[16EJk	.
=1269	=1269
16EKL]	.
8D	.
[16GJk	.
16GKL]	.
8c	.
16CJk	.
=1270	=1270
8.GL 8.f	ff
16GJk 16f	.
8.GL 8.f	.
16GJk 16f	.
=1271	=1271
16GLL 16f	.
16G 16f	.
16G 16f	.
16GJJ 16f	.
16GLL 16f	.
16G 16f	.
16G 16f	.
16GJJ 16f	.
=1272	=1272
!!linebreak:original
2G;	.
=1273	=1273
8.CL 8.B-	ff
16CJk 16B-	.
8.CL 8.B-	.
16CJk 16B-	.
=1274	=1274
16CLL 16B-	.
16C 16B-	.
16C 16B-	.
16CJJ 16B-	.
16CLL 16B-	.
16C 16B-	.
16C 16B-	.
16CJJ 16B-	.
=1275	=1275
4C; 4B-	.
4r	.
=1276	=1276
2r	.
=1277	=1277
2r	.
=1278	=1278
2r	.
=1279	=1279
2r	.
=1280	=1280
4r	.
8cL	.
16dL	pp
16AJJ	.
=1281	=1281
8B-L	.
8GJ	.
8G-XL	.
8DJ	.
=1282	=1282
8GL	.
8B-J	.
8CL	.
16DL	.
16EJJ	.
=1283	=1283
8F'L	.
8F'J	.
8G'L	.
8G'J	.
=1284	=1284
4A	.
4r	.
=1285	=1285
!!linebreak:original
4r	.
8CL	.
16DL	.
16EJJ	.
=1286	=1286
8F'L	.
8F'J	.
8G'L	.
8G'J	.
=1287	=1287
8c'L	.
8A-X'J	.
8B-'L	.
[8E-XJ	.
=1288	=1288
4E-]	.
[4F	.
=1289	=1289
4F]	.
8FL	.
16GL	.
16DJJ	.
=1290	=1290
8EL	.
16AL	.
16EJJ	.
8FL	.
8F#XJ	.
=1291	=1291
(8FL	.
16GL	.
16DJJ	.
8E-XL	.
[8EnJ)	.
=1292	=1292
*^	*
*	*^	*
(8EL]	4ryy	4ryy	.
16FL	.	.	.
16C#XJJ)	.	.	.
4DT	2048%115Dyy	2048%115D/yy	.
.	32ELLLyy	32E/LLLyy	.
.	32Dyy	32D/yy	.
.	32Eyy	32E/yy	.
.	32Dyy	32D/yy	.
.	32Eyy	32E/yy	.
.	32DJJJyy	32D/JJJyy	.
.	2048ryy	2048ryy	.
.	256.ryy	256.ryy	.
=1293	=1293	=1293	=1293
!!linebreak:original
4Et	2048%115Eyy	2048%115E/yy	.
.	32FLLLyy	32F/LLLyy	.
.	32Eyy	32E/yy	.
.	32Fyy	32F/yy	.
.	32Eyy	32E/yy	.
.	32Fyy	32F/yy	.
.	32EJJJyy	32E/JJJyy	.
.	2048ryy	2048ryy	.
.	256.ryy	256.ryy	.
4FT	2048%115Fyy	2048%115F/yy	.
.	32GLLLyy	32G/LLLyy	.
.	32Fyy	32F/yy	.
.	32Gyy	32G/yy	.
.	32Fyy	32F/yy	.
.	32Gyy	32G/yy	.
.	32FJJJyy	32F/JJJyy	.
.	2048ryy	2048ryy	.
.	256.ryy	256.ryy	.
=1294	=1294	=1294	=1294
4GT	2048%115Gyy	2048%115G/yy	.
.	32ALLLyy	32A/LLLyy	.
.	32Gyy	32G/yy	.
.	32Ayy	32A/yy	.
.	32Gyy	32G/yy	.
.	32Ayy	32A/yy	.
.	32GJJJyy	32G/JJJyy	.
.	2048ryy	2048ryy	.
.	256.ryy	256.ryy	.
4At	2048%115Ayy	2048%115A/yy	.
.	32B-LLLyy	32B-/LLLyy	.
.	32Ayy	32A/yy	.
.	32B-yy	32B-/yy	.
.	32Ayy	32A/yy	.
.	32B-yy	32B-/yy	.
.	32AJJJyy	32A/JJJyy	.
.	2048ryy	2048ryy	.
.	256.ryy	256.ryy	.
*v	*v	*v	*
=1295	=1295
!LO:TX:b:i:t=cresc.	!
8B-'L	.
16r	.
16E'Jk 16G	.
8E'L 8G	.
16r	.
16E'Jk 16G	.
=1296	=1296
8E'L 8G	.
16r	.
16E'Jk 16G	.
8E'L 8G	.
16r	.
16E'Jk 16G	.
=1297	=1297
8F'L 8A	.
16r	.
16F'Jk 16A	.
8F'L 8A	.
16r	.
16F'Jk 16A	.
=1298	=1298
8F'L 8A	.
16r	.
16F'Jk 16A	.
8F'L 8A	.
16r	.
16F'Jk 16A	.
=1299	=1299
8B-L	.
16r	.
16B-Jk	.
8B-L	.
16r	.
16B-Jk	.
=1300	=1300
8B-L	.
16r	.
16B-Jk	.
8B-L	.
16r	.
16B-Jk	.
=1301	=1301
8cL	.
16r	.
16cJk	.
8cL	.
16r	.
16cJk	.
=1302	=1302
!!linebreak:original
8cL	.
16r	.
16cJk	.
8cL	.
16r	.
16cJk	.
=1303	=1303
!	!LO:DY:a
4C	f
16r	.
(16ELL	.
16F)	f
(16DJJ	.
=1304	=1304
4E)	.
16r	.
(16B-LL	f
16c)	.
(16AJJ	.
=1305	=1305
*^	*
*	*^	*
.	4096%127cyy	4096%127c\yy	.
.	4096%127B-yy	4096%127B-/yy	.
.	4096%127cyy	4096%127c\yy	.
.	4096%127B-yy	4096%127B-/yy	.
.	4096%127cyy	4096%127c\yy	.
.	4096%127B-yy	4096%127B-/yy	.
.	4096%127cyy	4096%127c\yy	.
.	4096%127B-yy	4096%127B-/yy	.
.	4096%127cyy	4096%127c\yy	.
.	[[4096%115B-yy	[[4096%115B-/yy	.
[2B-T)	.	.	ff
.	.	.	.
.	.	.	.
=1306	=1306	=1306	=1306
.	4096%127c]	4096%127c\]	.
.	4096%127B-yy	4096%127B-/yy	.
.	4096%127cyy	4096%127c\yy	.
.	4096%127B-yy	4096%127B-/yy	.
.	4096%127cyy	4096%127c\yy	.
.	4096%127B-yy	4096%127B-/yy	.
.	4096%127cyy	4096%127c\yy	.
.	4096%127B-yy	4096%127B-/yy	.
.	4096%127cyy	4096%127c\yy	.
.	4096%127B-yy	4096%127B-/yy	.
.	4096%127cyy	4096%127c\yy	.
.	4096%127B-yy	4096%127B-/yy	.
.	4096%127cyy	4096%127c\yy	.
.	4096%127B-yy	4096%127B-/yy	.
.	1024ryy	1024ryy	.
.	1%0B-/yy	1%0B-/yy	.
2B-]	4096%127cyy	4096%127c\yy	.
.	4096%127B-yy	4096%127B-/yy	.
*v	*v	*v	*
=1307	=1307
(8AL	ff
16B-L	.
16cJJ)	.
(8dL	.
16eL	.
16fJJ)	.
=1308	=1308
8CL	.
16DL	.
16EJJ	.
8FL	.
16GL	.
16AJJ	.
=1309	=1309
4B-	.
!	!LO:DY:a
[4C [4B-	sf
=1310	=1310
!	!LO:DY:a
2C] 2B-]	p
=1311	=1311
!!linebreak:original
4A	sf
4F	sf
=1312	=1312
4c	sf
4A	sf
=1313	=1313
!LO:TX:b:i:t=sempre	!
4G	.
8EL	.
16FL	.
16GJJ	.
=1314	=1314
8FL	f
16EL	.
16DJJ	.
8CL	.
16DL	.
16EJJ	.
=1315	=1315
8FL	.
16GL	.
16AJJ	.
8B-L	sf
16AL	.
16GJJ	.
=1316	=1316
8FL	sf
16EL	.
16DJJ	.
8CL	sf
16DL	.
16EJJ	.
=1317	=1317
(8FL	.
16GL	.
16AJJ)	.
(8B-L	.
16AL	.
16GJJ)	.
=1318	=1318
(8FL	.
16GL	.
16AJJ)	.
8B-'L	.
8A'J	.
=1319	=1319
!!linebreak:original
!LO:TX:a:t=Adagio ma non troppo.	!
2B- 2f	ff
=1320	=1320
[2f	p
=1321	=1321
(8fL]	.
16aL	.
[16fJJ)	.
(8fL]	.
8eJ)	.
=1322	=1322
4e	.
4e	.
=1323	=1323
4e	.
(4e	.
=1324	=1324
!LO:TX:a:i:t=sempre e perendosi.	!
4f	.
4e	.
=1325	=1325
4f)	.
(8.cL	.
16B-Jk	.
=1326	=1326
4A)	.
4c	ppp
=1327	=1327
[8cL	.
16cJk]	.
16r	.
[8B-L	.
16B-Jk]	.
16r	.
=1328	=1328
[8AL	.
16AJk]	.
16r	.
[8cL	.
16cJk]	.
16r	.
=1329	=1329
!!linebreak:original
!LO:TX:a:t=Presto	!
8FL	ff
16fL	.
16fJJ	.
8fL	.
16AL	.
16AJJ	.
=1330	=1330
8AL	.
16cL	.
16cJJ	.
8cL	.
16fL	.
16fJJ	.
=1331	=1331
8fL	.
16aL	.
16aJJ	.
8aL	.
16ccL	.
16ccJJ	.
=1332	=1332
8ccL	.
16ffL	.
16ffJJ	.
8ffL	.
16ffL	.
16ffJJ	.
=1333	=1333
8ff	.
8r	.
8c	.
8r	.
=1334	=1334
8f	.
8r	.
8C 8c	.
8r	.
=1335	=1335
4F	.
8.r	.
16c 16f	.
=1336	=1336
4c 4f	.
8.r	.
16F	.
=1337	=1337
4F	.
4r	.
==	==
*-	*-
